;FLAVOR:Marlin
;TIME:134
;Filament used: 0.0458766m
;Layer height: 0.2
;MINX:101.452
;MINY:101.452
;MINZ:0.2
;MAXX:133.548
;MAXY:133.548
;MAXZ:3
;Generated with Cura_SteamEngine main
M140 S70
M105
M190 S70
M104 S240
M105
M109 S240
M82 ;absolute extrusion mode
; Ender 3 Custom Start G-code
G92 E0 ; Reset Extruder
G28 ; Home all axes
G1 Z2.0 F3000 ; Move Z Axis up little to prevent scratching of Heat Bed
G1 X0.1 Y20 Z0.3 F5000.0 ; Move to start position
G1 X0.1 Y200.0 Z0.3 F1500.0 E15 ; Draw the first line
G1 X0.4 Y200.0 Z0.3 F5000.0 ; Move to side a little
G1 X0.4 Y20 Z0.3 F1500.0 E30 ; Draw the second line
G92 E0 ; Reset Extruder
G1 Z2.0 F3000 ; Move Z Axis up little to prevent scratching of Heat Bed
G1 X5 Y20 Z0.3 F5000.0 ; Move over to prevent blob squish
G92 E0
G92 E0
G1 F2700 E-5
;LAYER_COUNT:15
;LAYER:0
M107
G0 F6000 X106.061 Y106.243 Z0.2
G0 X101.452 Y117.472
;TYPE:SKIRT
G1 F2700 E0
G1 F900 X101.457 Y117.095 E0.01254
G1 X101.493 Y116.3 E0.03901
G1 X101.579 Y115.498 E0.06584
G1 X101.637 Y115.086 E0.07967
G1 X101.758 Y114.391 E0.10314
G1 X101.849 Y113.951 E0.11808
G1 X102.194 Y112.674 E0.16208
G1 X102.353 Y112.201 E0.17868
G1 X102.625 Y111.478 E0.20437
G1 X102.742 Y111.197 E0.21449
G1 X103.011 Y110.602 E0.23621
G1 X103.151 Y110.315 E0.24683
G1 X103.484 Y109.684 E0.27056
G1 X103.645 Y109.402 E0.28136
G1 X104.051 Y108.737 E0.30728
G1 X104.514 Y108.075 E0.33415
G1 X104.757 Y107.749 E0.34767
G1 X105.204 Y107.188 E0.37153
G1 X105.4 Y106.958 E0.38158
G1 X105.861 Y106.45 E0.40439
G1 X106.061 Y106.243 E0.41397
G1 X106.576 Y105.743 E0.43784
G1 X106.805 Y105.535 E0.44813
G1 X107.29 Y105.12 E0.46936
G1 X107.529 Y104.927 E0.47958
G1 X108.099 Y104.497 E0.50333
G1 X108.425 Y104.267 E0.5166
G1 X109.042 Y103.861 E0.54116
G1 X109.257 Y103.73 E0.54954
G1 X109.792 Y103.425 E0.57002
G1 X110.078 Y103.272 E0.58081
G1 X110.743 Y102.944 E0.60547
G1 X111.04 Y102.81 E0.61631
G1 X111.65 Y102.557 E0.63827
G1 X111.931 Y102.45 E0.64827
G1 X112.61 Y102.216 E0.67216
G1 X112.974 Y102.104 E0.68482
G1 X113.833 Y101.876 E0.71438
G1 X114.487 Y101.739 E0.73661
G1 X114.835 Y101.677 E0.74837
G1 X115.537 Y101.575 E0.77196
G1 X115.938 Y101.53 E0.78538
G1 X116.661 Y101.473 E0.8095
G1 X117.529 Y101.452 E0.83838
G1 X117.905 Y101.457 E0.85089
G1 X118.701 Y101.493 E0.87739
G1 X119.498 Y101.579 E0.90405
G1 X119.904 Y101.636 E0.91769
G1 X120.592 Y101.755 E0.94091
G1 X121.044 Y101.848 E0.95626
G1 X122.359 Y102.204 E1.00157
G1 X122.828 Y102.363 E1.01804
G1 X123.519 Y102.624 E1.04261
G1 X123.798 Y102.74 E1.05266
G1 X124.398 Y103.011 E1.07456
G1 X124.685 Y103.151 E1.08518
G1 X125.32 Y103.486 E1.10906
G1 X125.6 Y103.646 E1.11978
G1 X126.156 Y103.987 E1.14148
G1 X126.375 Y104.13 E1.15017
G1 X126.931 Y104.518 E1.17272
G1 X127.264 Y104.766 E1.18653
G1 X127.827 Y105.214 E1.21046
G1 X128.474 Y105.791 E1.2393
G1 X128.75 Y106.056 E1.25202
G1 X129.289 Y106.611 E1.27776
G1 X129.479 Y106.821 E1.28718
G1 X129.88 Y107.29 E1.3077
G1 X130.073 Y107.529 E1.31792
G1 X130.498 Y108.091 E1.34135
G1 X130.727 Y108.415 E1.35455
G1 X131.142 Y109.047 E1.3797
G1 X131.274 Y109.264 E1.38814
G1 X131.572 Y109.787 E1.40816
G1 X131.722 Y110.067 E1.41873
G1 X132.049 Y110.729 E1.44329
G1 X132.186 Y111.032 E1.45435
G1 X132.446 Y111.657 E1.47686
G1 X132.552 Y111.936 E1.48679
G1 X132.777 Y112.59 E1.50979
G1 X132.89 Y112.955 E1.5225
G1 X133.077 Y113.637 E1.54602
G1 X133.26 Y114.476 E1.57458
G1 X133.322 Y114.822 E1.58627
G1 X133.426 Y115.538 E1.61034
G1 X133.471 Y115.94 E1.62379
G1 X133.527 Y116.658 E1.64774
G1 X133.548 Y117.528 E1.67669
G1 X133.543 Y117.902 E1.68913
G1 X133.497 Y118.789 E1.71867
G1 X133.421 Y119.498 E1.74239
G1 X133.364 Y119.904 E1.75602
G1 X133.245 Y120.592 E1.77925
G1 X133.152 Y121.044 E1.7946
G1 X132.798 Y122.352 E1.83966
G1 X132.64 Y122.819 E1.85606
G1 X132.375 Y123.522 E1.88105
G1 X132.258 Y123.803 E1.89117
G1 X131.989 Y124.398 E1.91289
G1 X131.849 Y124.685 E1.92351
G1 X131.514 Y125.32 E1.94739
G1 X131.354 Y125.6 E1.95812
G1 X130.953 Y126.256 E1.98369
G1 X130.486 Y126.925 E2.01083
G1 X130.243 Y127.251 E2.02435
G1 X129.796 Y127.812 E2.04821
G1 X129.6 Y128.042 E2.05826
G1 X129.139 Y128.55 E2.08107
G1 X128.939 Y128.757 E2.09065
G1 X128.424 Y129.257 E2.11452
G1 X128.195 Y129.465 E2.12481
G1 X127.71 Y129.88 E2.14604
G1 X127.471 Y130.073 E2.15626
G1 X126.901 Y130.503 E2.18001
G1 X126.575 Y130.733 E2.19328
G1 X125.958 Y131.139 E2.21784
G1 X125.743 Y131.27 E2.22622
G1 X125.208 Y131.575 E2.2467
G1 X124.922 Y131.728 E2.25749
G1 X124.257 Y132.056 E2.28215
G1 X123.96 Y132.19 E2.29299
G1 X123.331 Y132.45 E2.31562
G1 X123.051 Y132.556 E2.32558
G1 X122.409 Y132.777 E2.34816
G1 X122.044 Y132.89 E2.36087
G1 X121.374 Y133.074 E2.38398
G1 X120.513 Y133.261 E2.41329
G1 X120.165 Y133.323 E2.42504
G1 X119.463 Y133.425 E2.44864
G1 X119.062 Y133.47 E2.46206
G1 X118.339 Y133.527 E2.48618
G1 X117.471 Y133.548 E2.51506
G1 X117.095 Y133.543 E2.52757
G1 X116.299 Y133.507 E2.55407
G1 X115.502 Y133.421 E2.58073
G1 X115.096 Y133.364 E2.59437
G1 X114.408 Y133.245 E2.61759
G1 X113.956 Y133.152 E2.63294
G1 X112.641 Y132.796 E2.67825
G1 X112.172 Y132.637 E2.69472
G1 X111.481 Y132.376 E2.71929
G1 X111.202 Y132.26 E2.72934
G1 X110.602 Y131.989 E2.75123
G1 X110.315 Y131.849 E2.76185
G1 X109.68 Y131.514 E2.78573
G1 X109.4 Y131.354 E2.79646
G1 X108.848 Y131.016 E2.81799
G1 X108.638 Y130.879 E2.82633
G1 X108.074 Y130.485 E2.84921
G1 X107.748 Y130.242 E2.86273
G1 X107.178 Y129.787 E2.88699
G1 X106.945 Y129.588 E2.89718
G1 X106.448 Y129.137 E2.9195
G1 X106.244 Y128.94 E2.92894
G1 X105.741 Y128.421 E2.95298
G1 X105.534 Y128.193 E2.96322
G1 X105.12 Y127.71 E2.98438
G1 X104.927 Y127.471 E2.99459
G1 X104.497 Y126.901 E3.01834
G1 X104.267 Y126.575 E3.03161
G1 X103.872 Y125.975 E3.0555
G1 X103.738 Y125.756 E3.06404
G1 X103.409 Y125.181 E3.08608
G1 X103.259 Y124.899 E3.0967
G1 X102.944 Y124.257 E3.12049
G1 X102.81 Y123.96 E3.13132
G1 X102.55 Y123.331 E3.15396
G1 X102.444 Y123.051 E3.16392
G1 X102.221 Y122.403 E3.18671
G1 X102.107 Y122.034 E3.19956
G1 X101.924 Y121.368 E3.22253
G1 X101.739 Y120.513 E3.25162
G1 X101.677 Y120.165 E3.26338
G1 X101.575 Y119.463 E3.28697
G1 X101.53 Y119.062 E3.3004
G1 X101.473 Y118.341 E3.32445
G1 X101.452 Y117.472 E3.35336
G0 F6000 X101.852 Y117.477
G1 F900 X101.857 Y117.1 E3.3659
G1 X101.903 Y116.226 E3.39501
G1 X101.975 Y115.553 E3.41752
G1 X102.033 Y115.141 E3.43136
G1 X102.15 Y114.472 E3.45395
G1 X102.241 Y114.032 E3.4689
G1 X102.573 Y112.802 E3.51127
G1 X102.732 Y112.329 E3.52787
G1 X102.994 Y111.632 E3.55263
G1 X103.111 Y111.351 E3.56276
G1 X103.37 Y110.778 E3.58367
G1 X103.51 Y110.491 E3.59429
G1 X103.832 Y109.882 E3.6172
G1 X103.993 Y109.6 E3.628
G1 X104.385 Y108.958 E3.65302
G1 X104.834 Y108.314 E3.67913
G1 X105.077 Y107.988 E3.69266
G1 X105.508 Y107.448 E3.71564
G1 X105.704 Y107.218 E3.72569
G1 X106.149 Y106.728 E3.7477
G1 X106.349 Y106.521 E3.75728
G1 X106.845 Y106.04 E3.78026
G1 X107.074 Y105.832 E3.79055
G1 X107.541 Y105.431 E3.81102
G1 X107.78 Y105.238 E3.82124
G1 X108.329 Y104.824 E3.84411
G1 X108.655 Y104.594 E3.85738
G1 X109.251 Y104.203 E3.88109
G1 X109.981 Y103.777 E3.9092
G1 X110.267 Y103.624 E3.91999
G1 X110.908 Y103.309 E3.94374
G1 X111.205 Y103.175 E3.95458
G1 X111.792 Y102.931 E3.97572
G1 X112.073 Y102.824 E3.98572
G1 X112.728 Y102.599 E4.00876
G1 X113.092 Y102.487 E4.02142
G1 X113.72 Y102.314 E4.04309
G1 X114.557 Y102.132 E4.07158
G1 X114.905 Y102.07 E4.08333
G1 X115.582 Y101.972 E4.10609
G1 X115.983 Y101.927 E4.11951
G1 X116.679 Y101.872 E4.14273
G1 X117.524 Y101.852 E4.17084
G1 X117.9 Y101.857 E4.18335
G1 X118.774 Y101.903 E4.21246
G1 X119.443 Y101.975 E4.23484
G1 X119.849 Y102.032 E4.24847
G1 X120.511 Y102.146 E4.27082
G1 X120.963 Y102.239 E4.28616
G1 X122.23 Y102.583 E4.32983
G1 X122.699 Y102.742 E4.3463
G1 X123.365 Y102.993 E4.36997
G1 X123.644 Y103.109 E4.38002
G1 X124.222 Y103.37 E4.40112
G1 X124.509 Y103.51 E4.41174
G1 X125.121 Y103.834 E4.43477
G1 X125.401 Y103.994 E4.4455
G1 X125.937 Y104.322 E4.4664
G1 X126.156 Y104.465 E4.4751
G1 X126.692 Y104.839 E4.49683
G1 X127.025 Y105.087 E4.51064
G1 X127.568 Y105.519 E4.53372
G1 X128.197 Y106.08 E4.56175
G1 X128.473 Y106.345 E4.57448
G1 X128.992 Y106.879 E4.59925
G1 X129.182 Y107.089 E4.60867
G1 X129.569 Y107.541 E4.62846
G1 X129.762 Y107.78 E4.63868
G1 X130.171 Y108.322 E4.66126
G1 X130.4 Y108.646 E4.67446
G1 X130.8 Y109.255 E4.69869
G1 X131.22 Y109.975 E4.72641
G1 X131.37 Y110.255 E4.73698
G1 X131.685 Y110.894 E4.76067
G1 X131.822 Y111.197 E4.77173
G1 X132.072 Y111.799 E4.79341
G1 X132.178 Y112.078 E4.80334
G1 X132.395 Y112.708 E4.8255
G1 X132.508 Y113.073 E4.83821
G1 X132.688 Y113.73 E4.86087
G1 X132.866 Y114.546 E4.88865
G1 X132.928 Y114.892 E4.90034
G1 X133.028 Y115.583 E4.92356
G1 X133.073 Y115.985 E4.93701
G1 X133.128 Y116.676 E4.96007
G1 X133.148 Y117.523 E4.98825
G1 X133.143 Y117.897 E5.00069
G1 X133.098 Y118.759 E5.0294
G1 X133.025 Y119.443 E5.05228
G1 X132.968 Y119.849 E5.06591
G1 X132.854 Y120.511 E5.08826
G1 X132.761 Y120.963 E5.1036
G1 X132.419 Y122.224 E5.14706
G1 X132.261 Y122.691 E5.16346
G1 X132.006 Y123.368 E5.18752
G1 X131.889 Y123.649 E5.19764
G1 X131.63 Y124.222 E5.21856
G1 X131.49 Y124.509 E5.22918
G1 X131.166 Y125.121 E5.25221
G1 X131.006 Y125.401 E5.26294
G1 X130.621 Y126.033 E5.28755
G1 X130.166 Y126.686 E5.31402
G1 X129.923 Y127.012 E5.32755
G1 X129.492 Y127.552 E5.35053
G1 X129.296 Y127.782 E5.36058
G1 X128.851 Y128.272 E5.38259
G1 X128.651 Y128.479 E5.39216
G1 X128.155 Y128.96 E5.41514
G1 X127.926 Y129.168 E5.42543
G1 X127.459 Y129.569 E5.44591
G1 X127.22 Y129.762 E5.45612
G1 X126.671 Y130.176 E5.47899
G1 X126.345 Y130.406 E5.49226
G1 X125.749 Y130.797 E5.51597
G1 X125.019 Y131.223 E5.54408
G1 X124.733 Y131.376 E5.55487
G1 X124.092 Y131.691 E5.57863
G1 X123.795 Y131.825 E5.58946
G1 X123.189 Y132.076 E5.61128
G1 X122.909 Y132.182 E5.62124
G1 X122.291 Y132.395 E5.64298
G1 X121.926 Y132.508 E5.65569
G1 X121.28 Y132.686 E5.67797
G1 X120.443 Y132.868 E5.70646
G1 X120.095 Y132.93 E5.71822
G1 X119.418 Y133.028 E5.74097
G1 X119.017 Y133.073 E5.75439
G1 X118.321 Y133.128 E5.77761
G1 X117.476 Y133.148 E5.80573
G1 X117.1 Y133.143 E5.81823
G1 X116.226 Y133.097 E5.84734
G1 X115.557 Y133.025 E5.86972
G1 X115.151 Y132.968 E5.88336
G1 X114.489 Y132.854 E5.9057
G1 X114.037 Y132.761 E5.92105
G1 X112.77 Y132.417 E5.96472
G1 X112.301 Y132.258 E5.98119
G1 X111.635 Y132.007 E6.00486
G1 X111.356 Y131.891 E6.01491
G1 X110.778 Y131.63 E6.036
G1 X110.491 Y131.49 E6.04662
G1 X109.879 Y131.166 E6.06966
G1 X109.599 Y131.006 E6.08038
G1 X109.066 Y130.681 E6.10114
G1 X108.856 Y130.544 E6.10948
G1 X108.313 Y130.165 E6.13151
G1 X107.987 Y129.922 E6.14503
G1 X107.438 Y129.483 E6.16841
G1 X107.205 Y129.284 E6.1786
G1 X106.726 Y128.849 E6.20012
G1 X106.522 Y128.652 E6.20956
G1 X106.037 Y128.152 E6.23273
G1 X105.83 Y127.924 E6.24297
G1 X105.431 Y127.459 E6.26335
G1 X105.238 Y127.22 E6.27356
G1 X104.824 Y126.671 E6.29643
G1 X104.594 Y126.345 E6.3097
G1 X104.213 Y125.766 E6.33276
G1 X104.079 Y125.547 E6.3413
G1 X103.763 Y124.993 E6.36251
G1 X103.613 Y124.711 E6.37313
G1 X103.309 Y124.092 E6.39607
G1 X103.175 Y123.795 E6.40691
G1 X102.924 Y123.189 E6.42872
G1 X102.818 Y122.909 E6.43868
G1 X102.603 Y122.285 E6.46063
G1 X102.489 Y121.916 E6.47348
G1 X102.313 Y121.274 E6.49562
G1 X102.132 Y120.443 E6.52391
G1 X102.07 Y120.095 E6.53566
G1 X101.972 Y119.418 E6.55841
G1 X101.927 Y119.017 E6.57184
G1 X101.872 Y118.323 E6.59499
G1 X101.852 Y117.477 E6.62314
G0 F6000 X102.252 Y117.483
G1 F900 X102.257 Y117.106 E6.63568
G1 X102.29 Y116.359 E6.66055
G1 X102.372 Y115.609 E6.68564
G1 X102.43 Y115.197 E6.69948
G1 X102.541 Y114.553 E6.72121
G1 X102.632 Y114.113 E6.73616
G1 X102.953 Y112.929 E6.77696
G1 X103.112 Y112.456 E6.79356
G1 X103.364 Y111.785 E6.8174
G1 X103.481 Y111.504 E6.82752
G1 X103.73 Y110.953 E6.84763
G1 X103.87 Y110.666 E6.85825
G1 X104.179 Y110.081 E6.88026
G1 X104.34 Y109.799 E6.89106
G1 X104.72 Y109.176 E6.91533
G1 X105.155 Y108.553 E6.9406
G1 X105.398 Y108.227 E6.95412
G1 X105.813 Y107.707 E6.97625
G1 X106.009 Y107.477 E6.9863
G1 X106.437 Y107.006 E7.00747
G1 X106.637 Y106.799 E7.01704
G1 X107.114 Y106.336 E7.03915
G1 X107.343 Y106.128 E7.04944
G1 X107.793 Y105.742 E7.06916
G1 X108.032 Y105.549 E7.07938
G1 X108.56 Y105.151 E7.10137
G1 X108.886 Y104.921 E7.11464
G1 X109.459 Y104.545 E7.13743
G1 X110.17 Y104.13 E7.16482
G1 X110.456 Y103.977 E7.1756
G1 X111.072 Y103.674 E7.19844
G1 X111.369 Y103.54 E7.20927
G1 X111.934 Y103.305 E7.22963
G1 X112.215 Y103.198 E7.23963
G1 X112.845 Y102.981 E7.26179
G1 X113.209 Y102.869 E7.27446
G1 X114.021 Y102.653 E7.3024
G1 X114.627 Y102.526 E7.323
G1 X114.975 Y102.464 E7.33475
G1 X115.627 Y102.37 E7.35666
G1 X116.028 Y102.325 E7.37008
G1 X116.698 Y102.272 E7.39244
G1 X117.519 Y102.252 E7.41975
G1 X117.895 Y102.257 E7.43226
G1 X118.639 Y102.29 E7.45703
G1 X119.387 Y102.371 E7.48205
G1 X119.793 Y102.428 E7.49569
G1 X120.431 Y102.538 E7.51722
G1 X120.883 Y102.631 E7.53257
G1 X122.102 Y102.962 E7.57458
G1 X122.571 Y103.121 E7.59105
G1 X123.212 Y103.363 E7.61384
G1 X123.491 Y103.479 E7.62389
G1 X124.047 Y103.73 E7.64418
G1 X124.334 Y103.87 E7.6548
G1 X124.923 Y104.181 E7.67696
G1 X125.203 Y104.341 E7.68768
G1 X125.719 Y104.656 E7.70779
G1 X125.938 Y104.799 E7.71649
G1 X126.453 Y105.159 E7.73739
G1 X126.786 Y105.407 E7.7512
G1 X127.308 Y105.823 E7.7734
G1 X127.92 Y106.368 E7.80066
G1 X128.196 Y106.633 E7.81338
G1 X128.696 Y107.148 E7.83726
G1 X128.886 Y107.358 E7.84667
G1 X129.258 Y107.793 E7.86571
G1 X129.451 Y108.032 E7.87593
G1 X129.845 Y108.553 E7.89765
G1 X130.074 Y108.877 E7.91085
G1 X130.458 Y109.463 E7.93415
G1 X130.867 Y110.164 E7.96115
G1 X131.017 Y110.444 E7.97171
G1 X131.32 Y111.059 E7.99451
G1 X131.457 Y111.362 E8.00557
G1 X131.698 Y111.941 E8.02643
G1 X131.804 Y112.22 E8.03636
G1 X132.013 Y112.826 E8.05768
G1 X132.126 Y113.191 E8.07039
G1 X132.299 Y113.824 E8.09222
G1 X132.472 Y114.617 E8.11921
G1 X132.534 Y114.963 E8.1309
G1 X132.631 Y115.627 E8.15322
G1 X132.676 Y116.029 E8.16668
G1 X132.728 Y116.694 E8.18886
G1 X132.748 Y117.517 E8.21624
G1 X132.743 Y117.891 E8.22868
G1 X132.711 Y118.625 E8.25312
G1 X132.629 Y119.387 E8.27861
G1 X132.572 Y119.793 E8.29225
G1 X132.462 Y120.431 E8.31378
G1 X132.369 Y120.883 E8.32913
G1 X132.04 Y122.096 E8.37093
G1 X131.882 Y122.563 E8.38733
G1 X131.636 Y123.215 E8.4105
G1 X131.519 Y123.496 E8.42063
G1 X131.27 Y124.047 E8.44074
G1 X131.13 Y124.334 E8.45136
G1 X130.819 Y124.923 E8.47351
G1 X130.659 Y125.203 E8.48424
G1 X130.216 Y125.914 E8.5121
G1 X129.845 Y126.447 E8.5337
G1 X129.602 Y126.773 E8.54722
G1 X129.187 Y127.293 E8.56935
G1 X128.991 Y127.523 E8.5794
G1 X128.563 Y127.994 E8.60057
G1 X128.363 Y128.201 E8.61014
G1 X127.886 Y128.664 E8.63225
G1 X127.657 Y128.872 E8.64254
G1 X127.207 Y129.258 E8.66226
G1 X126.968 Y129.451 E8.67248
G1 X126.44 Y129.849 E8.69447
G1 X126.114 Y130.079 E8.70774
G1 X125.541 Y130.455 E8.73054
G1 X124.83 Y130.87 E8.75792
G1 X124.544 Y131.023 E8.76871
G1 X123.928 Y131.326 E8.79154
G1 X123.631 Y131.46 E8.80238
G1 X123.047 Y131.702 E8.8234
G1 X122.767 Y131.808 E8.83336
G1 X122.173 Y132.013 E8.85426
G1 X121.808 Y132.126 E8.86697
G1 X121.186 Y132.297 E8.88842
G1 X120.373 Y132.474 E8.9161
G1 X120.025 Y132.536 E8.92785
G1 X119.373 Y132.63 E8.94976
G1 X118.972 Y132.675 E8.96318
G1 X118.302 Y132.728 E8.98554
G1 X117.481 Y132.748 E9.01285
G1 X117.105 Y132.743 E9.02536
G1 X116.361 Y132.71 E9.05013
G1 X115.613 Y132.629 E9.07515
G1 X115.207 Y132.572 E9.08879
G1 X114.569 Y132.462 E9.11032
G1 X114.117 Y132.369 E9.12567
G1 X112.898 Y132.038 E9.16768
G1 X112.429 Y131.879 E9.18415
G1 X111.788 Y131.637 E9.20694
G1 X111.509 Y131.521 E9.21699
G1 X110.953 Y131.27 E9.23728
G1 X110.666 Y131.13 E9.2479
G1 X110.077 Y130.819 E9.27006
G1 X109.797 Y130.659 E9.28078
G1 X109.285 Y130.346 E9.30074
G1 X109.075 Y130.209 E9.30908
G1 X108.552 Y129.844 E9.33029
G1 X108.226 Y129.601 E9.34382
G1 X107.698 Y129.179 E9.3663
G1 X107.465 Y128.98 E9.37649
G1 X107.003 Y128.561 E9.39723
G1 X106.799 Y128.364 E9.40667
G1 X106.333 Y127.883 E9.42894
G1 X106.126 Y127.655 E9.43918
G1 X105.742 Y127.207 E9.45881
G1 X105.549 Y126.968 E9.46903
