;FLAVOR:Marlin
;TIME:15521
;Filament used: 10.8895m
;Layer height: 0.2
;MINX:88
;MINY:88
;MINZ:0.2
;MAXX:147
;MAXY:147
;MAXZ:60
;Generated with Cura_SteamEngine main
M140 S70
M105
M190 S70
M104 S240
M105
M109 S240
M82 ;absolute extrusion mode
; Ender 3 Custom Start G-code
G92 E0 ; Reset Extruder
G28 ; Home all axes
G1 Z2.0 F3000 ; Move Z Axis up little to prevent scratching of Heat Bed
G1 X0.1 Y20 Z0.3 F5000.0 ; Move to start position
G1 X0.1 Y200.0 Z0.3 F1500.0 E15 ; Draw the first line
G1 X0.4 Y200.0 Z0.3 F5000.0 ; Move to side a little
G1 X0.4 Y20 Z0.3 F1500.0 E30 ; Draw the second line
G92 E0 ; Reset Extruder
G1 Z2.0 F3000 ; Move Z Axis up little to prevent scratching of Heat Bed
G1 X5 Y20 Z0.3 F5000.0 ; Move over to prevent blob squish
G92 E0
G92 E0
G1 F2700 E-5
;LAYER_COUNT:300
;LAYER:0
M107
G0 F6000 X93.346 Y91.713 Z0.2
G0 X88.001 Y102.166
;TYPE:SKIRT
G1 F2700 E0
G1 F900 X88.011 Y101.464 E0.02335
G1 X88.064 Y100.528 E0.05453
G1 X88.197 Y99.6 E0.08571
G1 X88.409 Y98.686 E0.11692
G1 X88.697 Y97.793 E0.14813
G1 X89.061 Y96.929 E0.17931
G1 X89.497 Y96.098 E0.21052
G1 X90.002 Y95.308 E0.24171
G1 X90.572 Y94.564 E0.27288
G1 X90.945 Y94.14 E0.29166
G1 X91.363 Y93.701 E0.31183
G1 X93.346 Y91.713 E0.40522
G1 X93.965 Y91.111 E0.43394
G1 X94.665 Y90.487 E0.46513
G1 X95.417 Y89.926 E0.49633
G1 X96.213 Y89.431 E0.52751
G1 X97.049 Y89.005 E0.55871
G1 X97.918 Y88.652 E0.58991
G1 X98.813 Y88.374 E0.62108
G1 X99.73 Y88.174 E0.6523
G1 X100.659 Y88.052 E0.68346
G1 X101.423 Y88.012 E0.70891
G1 X102.178 Y88 E0.73402
G1 X132.834 Y88.001 E1.75365
G1 X133.535 Y88.011 E1.77696
G1 X134.471 Y88.064 E1.80814
G1 X135.4 Y88.197 E1.83936
G1 X136.313 Y88.409 E1.87053
G1 X137.206 Y88.697 E1.90174
G1 X138.07 Y89.061 E1.93292
G1 X138.901 Y89.497 E1.96414
G1 X139.691 Y90.002 E1.99532
G1 X140.435 Y90.572 E2.02649
G1 X140.832 Y90.921 E2.04407
G1 X141.301 Y91.365 E2.06556
G1 X143.426 Y93.488 E2.16546
G1 X143.897 Y93.975 E2.188
G1 X144.52 Y94.676 E2.21919
G1 X145.08 Y95.428 E2.25037
G1 X145.575 Y96.225 E2.28158
G1 X146 Y97.061 E2.31277
G1 X146.352 Y97.93 E2.34395
G1 X146.629 Y98.826 E2.37515
G1 X146.828 Y99.743 E2.40636
G1 X146.949 Y100.673 E2.43755
G1 X146.988 Y101.425 E2.46259
G1 X147 Y102.179 E2.48768
G1 X146.999 Y132.834 E3.50727
G1 X146.989 Y133.536 E3.53062
G1 X146.936 Y134.472 E3.5618
G1 X146.803 Y135.4 E3.59298
G1 X146.591 Y136.314 E3.62418
G1 X146.303 Y137.207 E3.65539
G1 X145.939 Y138.071 E3.68658
G1 X145.503 Y138.902 E3.71779
G1 X144.998 Y139.692 E3.74897
G1 X144.428 Y140.436 E3.78015
G1 X144.055 Y140.86 E3.79893
G1 X143.635 Y141.301 E3.81918
G1 X141.659 Y143.281 E3.91222
G1 X141.036 Y143.887 E3.94113
G1 X140.336 Y144.511 E3.97232
G1 X139.585 Y145.072 E4.0035
G1 X138.788 Y145.568 E4.03472
G1 X137.953 Y145.994 E4.0659
G1 X137.084 Y146.347 E4.0971
G1 X136.188 Y146.625 E4.1283
G1 X135.272 Y146.826 E4.15949
G1 X134.342 Y146.948 E4.19069
G1 X133.576 Y146.988 E4.2162
G1 X132.822 Y147 E4.24128
G1 X102.166 Y146.999 E5.2609
G1 X101.465 Y146.989 E5.28422
G1 X100.529 Y146.936 E5.3154
G1 X99.6 Y146.803 E5.34661
G1 X98.687 Y146.591 E5.37779
G1 X97.794 Y146.303 E5.409
G1 X96.93 Y145.939 E5.44018
G1 X96.099 Y145.503 E5.47139
G1 X95.309 Y144.998 E5.50258
G1 X94.565 Y144.428 E5.53375
G1 X94.168 Y144.079 E5.55133
G1 X93.699 Y143.635 E5.57281
G1 X91.711 Y141.651 E5.66623
G1 X91.111 Y141.034 E5.69485
G1 X90.487 Y140.334 E5.72604
G1 X89.926 Y139.582 E5.75725
G1 X89.431 Y138.786 E5.78842
G1 X89.005 Y137.95 E5.81963
G1 X88.652 Y137.081 E5.85083
G1 X88.374 Y136.186 E5.882
G1 X88.174 Y135.269 E5.91321
G1 X88.052 Y134.34 E5.94438
G1 X88.012 Y133.576 E5.96982
G1 X88 Y132.822 E5.99491
G1 X88.001 Y102.166 E7.01453
G0 F6000 X88.401 Y102.172
G1 F900 X88.411 Y101.47 E7.03788
G1 X88.464 Y100.551 E7.0685
G1 X88.597 Y99.64 E7.09912
G1 X88.808 Y98.744 E7.12973
G1 X89.096 Y97.869 E7.16037
G1 X89.459 Y97.023 E7.19099
G1 X89.894 Y96.212 E7.2216
G1 X90.398 Y95.441 E7.25224
G1 X91.239 Y94.412 E7.29644
G1 X91.646 Y93.983 E7.31611
G1 X93.629 Y91.995 E7.4095
G1 X94.243 Y91.398 E7.43798
G1 X94.931 Y90.787 E7.46859
G1 X95.67 Y90.237 E7.49922
G1 X96.454 Y89.754 E7.52985
G1 X97.276 Y89.341 E7.56045
G1 X98.132 Y89 E7.5911
G1 X99.014 Y88.735 E7.62173
G1 X99.915 Y88.548 E7.65233
G1 X100.829 Y88.44 E7.68294
G1 X101.43 Y88.412 E7.70295
G1 X102.178 Y88.4 E7.72784
G1 X132.677 Y88.4 E8.74224
G1 X133.529 Y88.411 E8.77058
G1 X134.448 Y88.464 E8.80119
G1 X135.359 Y88.597 E8.83182
G1 X136.255 Y88.808 E8.86243
G1 X137.13 Y89.096 E8.89307
G1 X137.976 Y89.459 E8.92369
G1 X138.787 Y89.894 E8.9543
G1 X139.558 Y90.398 E8.98493
G1 X140.561 Y91.215 E9.02796
G1 X141.019 Y91.648 E9.04892
G1 X143.007 Y93.632 E9.14234
G1 X143.609 Y94.253 E9.17111
G1 X144.22 Y94.942 E9.20174
G1 X144.769 Y95.681 E9.23235
G1 X145.251 Y96.465 E9.26296
G1 X145.664 Y97.288 E9.29359
G1 X146.003 Y98.144 E9.32421
G1 X146.267 Y99.026 E9.35483
G1 X146.454 Y99.928 E9.38547
G1 X146.561 Y100.842 E9.41608
G1 X146.588 Y101.432 E9.43572
G1 X146.6 Y102.179 E9.46057
G1 X146.599 Y132.828 E10.47996
G1 X146.589 Y133.53 E10.50331
G1 X146.536 Y134.449 E10.53393
G1 X146.403 Y135.36 E10.56455
G1 X146.192 Y136.256 E10.59517
G1 X145.904 Y137.131 E10.62581
G1 X145.541 Y137.977 E10.65643
G1 X145.106 Y138.788 E10.68703
G1 X144.602 Y139.559 E10.71767
G1 X143.761 Y140.588 E10.76187
G1 X143.352 Y141.019 E10.78163
G1 X141.376 Y142.999 E10.87467
G1 X140.758 Y143.6 E10.90335
G1 X140.07 Y144.212 E10.93397
G1 X139.331 Y144.761 E10.96459
G1 X138.548 Y145.245 E10.99521
G1 X137.725 Y145.658 E11.02583
G1 X136.87 Y145.999 E11.05645
G1 X135.988 Y146.264 E11.08708
G1 X135.087 Y146.452 E11.11769
G1 X134.173 Y146.56 E11.14831
G1 X133.569 Y146.588 E11.16842
G1 X132.822 Y146.6 E11.19326
G1 X102.172 Y146.599 E12.21269
G1 X101.471 Y146.589 E12.23601
G1 X100.552 Y146.536 E12.26662
G1 X99.641 Y146.403 E12.29724
G1 X98.745 Y146.192 E12.32786
G1 X97.87 Y145.904 E12.3585
G1 X97.024 Y145.541 E12.38912
G1 X96.213 Y145.106 E12.41973
G1 X95.442 Y144.602 E12.45036
G1 X94.439 Y143.785 E12.49339
G1 X93.981 Y143.352 E12.51435
G1 X91.993 Y141.368 E12.60777
G1 X91.398 Y140.756 E12.63616
G1 X90.787 Y140.068 E12.66676
G1 X90.237 Y139.329 E12.6974
G1 X89.754 Y138.545 E12.72803
G1 X89.341 Y137.723 E12.75862
G1 X89 Y136.867 E12.78927
G1 X88.735 Y135.985 E12.8199
G1 X88.548 Y135.084 E12.85051
G1 X88.44 Y134.17 E12.88112
G1 X88.412 Y133.569 E12.90113
G1 X88.4 Y132.822 E12.92598
G1 X88.401 Y102.172 E13.9454
G0 F6000 X88.801 Y102.178
G1 F900 X88.811 Y101.476 E13.96875
G1 X88.864 Y100.574 E13.99881
G1 X88.996 Y99.681 E14.02883
G1 X89.207 Y98.803 E14.05886
G1 X89.495 Y97.947 E14.0889
G1 X89.857 Y97.119 E14.11896
G1 X90.291 Y96.327 E14.149
G1 X90.794 Y95.577 E14.17903
G1 X91.532 Y94.684 E14.21756
G1 X91.929 Y94.266 E14.23674
G1 X94.035 Y92.156 E14.33589
G1 X94.521 Y91.685 E14.3584
G1 X95.197 Y91.086 E14.38844
G1 X95.923 Y90.549 E14.41848
G1 X96.694 Y90.078 E14.44853
G1 X97.503 Y89.678 E14.47854
G1 X98.345 Y89.35 E14.5086
G1 X99.212 Y89.098 E14.53863
G1 X100.098 Y88.924 E14.56866
G1 X101.437 Y88.812 E14.61335
G1 X102.178 Y88.8 E14.638
G1 X132.677 Y88.8 E15.6524
G1 X133.523 Y88.811 E15.68054
G1 X134.425 Y88.864 E15.71059
G1 X135.318 Y88.996 E15.74062
G1 X136.197 Y89.207 E15.77068
G1 X137.053 Y89.495 E15.80072
G1 X137.88 Y89.857 E15.83075
G1 X138.672 Y90.291 E15.86079
G1 X139.422 Y90.794 E15.89082
G1 X140.29 Y91.509 E15.92822
G1 X140.736 Y91.931 E15.94865
G1 X142.724 Y93.915 E16.04206
G1 X143.322 Y94.531 E16.07062
G1 X143.92 Y95.207 E16.10064
G1 X144.457 Y95.934 E16.1307
G1 X144.927 Y96.705 E16.16073
G1 X145.327 Y97.515 E16.19078
G1 X145.653 Y98.357 E16.22081
G1 X145.904 Y99.224 E16.25083
G1 X146.077 Y100.111 E16.28088
G1 X146.188 Y101.439 E16.32521
G1 X146.2 Y102.179 E16.34982
G1 X146.199 Y132.822 E17.36901
G1 X146.189 Y133.524 E17.39237
G1 X146.136 Y134.426 E17.42242
G1 X146.004 Y135.319 E17.45244
G1 X145.793 Y136.197 E17.48248
G1 X145.505 Y137.053 E17.51251
G1 X145.143 Y137.881 E17.54257
G1 X144.709 Y138.673 E17.57261
G1 X144.206 Y139.423 E17.60264
G1 X143.468 Y140.316 E17.64118
G1 X143.069 Y140.736 E17.66044
G1 X141.093 Y142.716 E17.75348
G1 X140.479 Y143.313 E17.78197
G1 X139.804 Y143.912 E17.81198
G1 X139.078 Y144.449 E17.84202
G1 X138.307 Y144.92 E17.87207
G1 X137.498 Y145.321 E17.9021
G1 X136.657 Y145.649 E17.93212
G1 X135.789 Y145.901 E17.96218
G1 X134.903 Y146.075 E17.99222
G1 X133.562 Y146.188 E18.03698
G1 X132.822 Y146.2 E18.06159
G1 X102.178 Y146.199 E19.08081
G1 X101.477 Y146.189 E19.10413
G1 X100.575 Y146.136 E19.13419
G1 X99.682 Y146.004 E19.16421
G1 X98.803 Y145.793 E19.19428
G1 X97.947 Y145.505 E19.22431
G1 X97.12 Y145.143 E19.25434
G1 X96.328 Y144.709 E19.28438
G1 X95.578 Y144.206 E19.31441
G1 X94.71 Y143.491 E19.35182
G1 X94.264 Y143.069 E19.37224
G1 X92.156 Y140.964 E19.47132
G1 X91.685 Y140.478 E19.49383
G1 X91.086 Y139.802 E19.52387
G1 X90.549 Y139.076 E19.55391
G1 X90.078 Y138.305 E19.58396
G1 X89.678 Y137.496 E19.61397
G1 X89.35 Y136.654 E19.64403
G1 X89.098 Y135.787 E19.67406
G1 X88.924 Y134.901 E19.70409
G1 X88.812 Y133.562 E19.74878
G1 X88.8 Y132.822 E19.7734
G1 X88.801 Y102.178 E20.79262
G1 F2700 E15.79262
;MESH:housing-v2-lower.stl
G0 F6000 X98.335 Y102.178
G0 X99.42 Y102.178
G0 X100.564 Y132.735
G0 X102.197 Y134.6
;TYPE:WALL-INNER
G1 F2700 E20.79262
G1 F900 X132.803 Y134.6 E21.81058
G1 X134.6 Y132.803 E21.89511
G1 X134.6 Y103.467 E22.87082
G1 X134.6 Y102.197 E22.91306
G1 X132.803 Y100.4 E22.99759
G1 X102.197 Y100.4 E24.01555
G1 X100.4 Y102.197 E24.10008
G1 X100.4 Y132.803 E25.11804
G1 X102.197 Y134.6 E25.20256
G0 F6000 X102.032 Y135
G1 F900 X132.968 Y135 E26.2315
G1 X135 Y132.968 E26.32708
G1 X135 Y103.467 E27.30828
G1 X135 Y102.032 E27.35601
G1 X132.968 Y100 E27.45159
G1 X102.032 Y100 E28.48053
G1 X100 Y102.032 E28.5761
G1 X100 Y132.968 E29.60504
G1 X102.032 Y135 E29.70062
G0 F6000 X101.866 Y135.4
G1 F900 X133.134 Y135.4 E30.7406
G1 X135.4 Y133.134 E30.84718
G1 X135.4 Y103.467 E31.83391
G1 X135.4 Y101.866 E31.88716
G1 X133.134 Y99.6 E31.99375
G1 X101.866 Y99.6 E33.03372
G1 X99.6 Y101.866 E33.14031
G1 X99.6 Y133.134 E34.18029
G1 X101.866 Y135.4 E34.28687
G0 F6000 X101.7 Y135.8
;TYPE:WALL-OUTER
G1 F900 X133.3 Y135.8 E35.33789
G1 X135.8 Y133.3 E35.45549
G1 X135.8 Y103.467 E36.44774
G1 X135.8 Y101.7 E36.50651
G1 X133.3 Y99.2 E36.6241
G1 X101.7 Y99.2 E37.67512
G1 X99.2 Y101.7 E37.79271
G1 X99.2 Y133.3 E38.84373
G1 X101.7 Y135.8 E38.96132
G0 F6000 X101.986 Y135.108
G0 X102.347 Y134.5
G0 X102.347 Y134.24
;TYPE:SKIN
G1 F900 X132.653 Y134.24 E39.96931
G1 X134.24 Y132.653 E40.04395
G1 X134.24 Y103.469 E41.01462
G1 X134.24 Y102.347 E41.05193
G1 X132.653 Y100.76 E41.12658
G1 X102.347 Y100.76 E42.13456
G1 X100.76 Y102.347 E42.20921
G1 X100.76 Y132.653 E43.21719
G1 X102.347 Y134.24 E43.29184
G0 F6000 X102.926 Y134.039
G1 F900 X100.959 Y132.072 E43.38436
G0 F6000 X100.959 Y131.507
G1 F900 X103.492 Y134.039 E43.50348
G0 F6000 X104.057 Y134.039
G1 F900 X100.959 Y130.941 E43.6492
G0 F6000 X100.959 Y130.375
G1 F900 X104.623 Y134.039 E43.82155
G0 F6000 X105.189 Y134.039
G1 F900 X100.959 Y129.809 E44.02051
G0 F6000 X100.959 Y129.244
G1 F900 X105.754 Y134.039 E44.24606
G0 F6000 X106.32 Y134.039
G1 F900 X100.959 Y128.678 E44.49822
G0 F6000 X100.959 Y128.112
G1 F900 X106.886 Y134.039 E44.77701
G0 F6000 X107.451 Y134.039
G1 F900 X100.959 Y127.547 E45.08237
G0 F6000 X100.959 Y126.981
G1 F900 X108.017 Y134.039 E45.41436
G0 F6000 X108.583 Y134.039
G1 F900 X100.959 Y126.415 E45.77297
G0 F6000 X100.959 Y125.85
G1 F900 X109.149 Y134.039 E46.15818
G0 F6000 X109.714 Y134.039
G1 F900 X100.959 Y125.284 E46.56999
G0 F6000 X100.959 Y124.718
G1 F900 X110.28 Y134.039 E47.00842
G0 F6000 X110.846 Y134.039
G1 F900 X100.959 Y124.153 E47.47345
G0 F6000 X100.959 Y123.587
G1 F900 X111.411 Y134.039 E47.96508
G0 F6000 X111.977 Y134.039
G1 F900 X100.959 Y123.021 E48.48333
G0 F6000 X100.959 Y122.456
G1 F900 X112.543 Y134.039 E49.02818
G0 F6000 X113.108 Y134.039
G1 F900 X100.959 Y121.89 E49.59963
G0 F6000 X100.959 Y121.324
G1 F900 X113.674 Y134.039 E50.19771
G0 F6000 X114.24 Y134.039
G1 F900 X100.959 Y120.758 E50.82241
G0 F6000 X100.959 Y120.193
G1 F900 X114.805 Y134.039 E51.47368
G0 F6000 X115.371 Y134.039
G1 F900 X100.959 Y119.627 E52.15158
G0 F6000 X100.959 Y119.061
G1 F900 X115.937 Y134.039 E52.8561
G0 F6000 X116.502 Y134.039
G1 F900 X100.959 Y118.496 E53.58719
G0 F6000 X100.959 Y117.93
G1 F900 X117.068 Y134.039 E54.34491
G0 F6000 X117.634 Y134.039
G1 F900 X100.959 Y117.364 E55.12925
G0 F6000 X100.959 Y116.799
G1 F900 X118.199 Y134.039 E55.94017
G0 F6000 X118.765 Y134.039
G1 F900 X100.959 Y116.233 E56.77771
G0 F6000 X100.959 Y115.667
G1 F900 X119.331 Y134.039 E57.64187
G0 F6000 X119.897 Y134.039
G1 F900 X100.959 Y115.102 E58.53263
G0 F6000 X100.959 Y114.536
G1 F900 X120.462 Y134.039 E59.44999
G0 F6000 X121.028 Y134.039
G1 F900 X100.959 Y113.97 E60.39398
G0 F6000 X100.959 Y113.405
G1 F900 X121.594 Y134.039 E61.36456
G0 F6000 X122.159 Y134.039
G1 F900 X100.959 Y112.839 E62.36174
G0 F6000 X100.959 Y112.273
G1 F900 X122.725 Y134.039 E63.38555
G0 F6000 X123.291 Y134.039
G1 F900 X100.959 Y111.708 E64.43595
G0 F6000 X100.959 Y111.142
G1 F900 X123.856 Y134.039 E65.51296
G0 F6000 X124.422 Y134.039
G1 F900 X100.959 Y110.576 E66.61659
G0 F6000 X100.959 Y110.01
G1 F900 X124.988 Y134.039 E67.74684
G0 F6000 X125.553 Y134.039
G1 F900 X100.959 Y109.445 E68.90366
G0 F6000 X100.959 Y108.879
G1 F900 X126.119 Y134.039 E70.08711
G0 F6000 X126.685 Y134.039
G1 F900 X100.959 Y108.313 E71.29718
G0 F6000 X100.959 Y107.748
G1 F900 X127.25 Y134.039 E72.53383
G0 F6000 X127.816 Y134.039
G1 F900 X100.959 Y107.182 E73.7971
G0 F6000 X100.959 Y106.616
G1 F900 X128.382 Y134.039 E75.087
G0 F6000 X128.947 Y134.039
G1 F900 X100.959 Y106.051 E76.40347
G0 F6000 X100.959 Y105.485
G1 F900 X129.513 Y134.039 E77.74656
G0 F6000 X130.079 Y134.039
G1 F900 X100.959 Y104.919 E79.11628
G0 F6000 X100.959 Y104.354
G1 F900 X130.645 Y134.039 E80.51259
G0 F6000 X131.21 Y134.039
G1 F900 X100.959 Y103.788 E81.9355
G0 F6000 X100.959 Y103.222
G1 F900 X131.776 Y134.039 E83.38504
G0 F6000 X132.342 Y134.039
G1 F900 X100.959 Y102.657 E84.86118
G0 F6000 X101.128 Y102.26
G1 F900 X132.738 Y133.87 E86.34802
G0 F6000 X133.021 Y133.587
G1 F900 X101.411 Y101.977 E87.83485
G0 F6000 X101.694 Y101.694
G1 F900 X133.304 Y133.304 E89.32169
G0 F6000 X133.587 Y133.021
G1 F900 X101.977 Y101.411 E90.80853
G0 F6000 X102.26 Y101.128
G1 F900 X133.87 Y132.738 E92.29537
G0 F6000 X134.039 Y132.342
G1 F900 X102.657 Y100.959 E93.7715
G0 F6000 X103.222 Y100.959
G1 F900 X134.039 Y131.776 E95.22104
G0 F6000 X134.039 Y131.21
G1 F900 X103.788 Y100.959 E96.64395
G0 F6000 X104.354 Y100.959
G1 F900 X134.039 Y130.645 E98.04027
G0 F6000 X134.039 Y130.079
G1 F900 X104.919 Y100.959 E99.40998
G0 F6000 X105.485 Y100.959
G1 F900 X134.039 Y129.513 E100.75308
G0 F6000 X134.039 Y128.947
G1 F900 X106.051 Y100.959 E102.06955
G0 F6000 X106.616 Y100.959
G1 F900 X134.039 Y128.382 E103.35944
G0 F6000 X134.039 Y127.816
G1 F900 X107.182 Y100.959 E104.62271
G0 F6000 X107.748 Y100.959
G1 F900 X134.039 Y127.25 E105.85936
G0 F6000 X134.039 Y126.685
G1 F900 X108.313 Y100.959 E107.06943
G0 F6000 X108.879 Y100.959
G1 F900 X134.039 Y126.119 E108.25288
G0 F6000 X134.039 Y125.553
G1 F900 X109.445 Y100.959 E109.40971
G0 F6000 X110.01 Y100.959
G1 F900 X134.039 Y124.988 E110.53996
G0 F6000 X134.039 Y124.422
G1 F900 X110.576 Y100.959 E111.64358
G0 F6000 X111.142 Y100.959
G1 F900 X134.039 Y123.856 E112.72059
G0 F6000 X134.039 Y123.291
G1 F900 X111.708 Y100.959 E113.77099
G0 F6000 X112.273 Y100.959
G1 F900 X134.039 Y122.725 E114.7948
G0 F6000 X134.039 Y122.159
G1 F900 X112.839 Y100.959 E115.79198
G0 F6000 X113.405 Y100.959
G1 F900 X134.039 Y121.594 E116.76257
G0 F6000 X134.039 Y121.028
G1 F900 X113.97 Y100.959 E117.70655
G0 F6000 X114.536 Y100.959
G1 F900 X134.039 Y120.462 E118.62391
G0 F6000 X134.039 Y119.897
G1 F900 X115.102 Y100.959 E119.51467
G0 F6000 X115.667 Y100.959
G1 F900 X134.039 Y119.331 E120.37884
G0 F6000 X134.039 Y118.765
G1 F900 X116.233 Y100.959 E121.21638
G0 F6000 X116.799 Y100.959
G1 F900 X134.039 Y118.199 E122.02729
G0 F6000 X134.039 Y117.634
G1 F900 X117.364 Y100.959 E122.81163
