;FLAVOR:Marlin
;TIME:4268
;Filament used: 2.42261m
;Layer height: 0.2
;MINX:72.5
;MINY:77.438
;MINZ:0.2
;MAXX:161.555
;MAXY:157.551
;MAXZ:29.8
;Generated with Cura_SteamEngine main
M140 S70
M105
M190 S70
M104 S240
M105
M109 S240
M82 ;absolute extrusion mode
; Ender 3 Custom Start G-code
G92 E0 ; Reset Extruder
G28 ; Home all axes
G1 Z2.0 F3000 ; Move Z Axis up little to prevent scratching of Heat Bed
G1 X0.1 Y20 Z0.3 F5000.0 ; Move to start position
G1 X0.1 Y200.0 Z0.3 F1500.0 E15 ; Draw the first line
G1 X0.4 Y200.0 Z0.3 F5000.0 ; Move to side a little
G1 X0.4 Y20 Z0.3 F1500.0 E30 ; Draw the second line
G92 E0 ; Reset Extruder
G1 Z2.0 F3000 ; Move Z Axis up little to prevent scratching of Heat Bed
G1 X5 Y20 Z0.3 F5000.0 ; Move over to prevent blob squish
G92 E0
G92 E0
G1 F2700 E-5
;LAYER_COUNT:150
;LAYER:0
M107
G0 F6000 X92.728 Y89.616 Z0.2
G0 X89.524 Y93.367
;TYPE:SKIRT
G1 F2700 E0
G1 F900 X90.303 Y92.371 E0.04206
G1 X90.88 Y91.661 E0.07249
G1 X91.263 Y91.214 E0.09206
G1 X92.126 Y90.261 E0.13483
G1 X92.728 Y89.616 E0.16417
G1 X93.162 Y89.176 E0.18473
G1 X94.215 Y88.169 E0.23319
G1 X94.914 Y87.522 E0.26487
G1 X95.293 Y87.189 E0.28165
G1 X95.781 Y86.781 E0.3028
G1 X96.73 Y86.013 E0.34341
G1 X97.239 Y85.612 E0.36496
G1 X97.724 Y85.247 E0.38515
G1 X99.184 Y84.229 E0.44435
G1 X100.029 Y83.67 E0.47804
G1 X100.527 Y83.359 E0.49757
G1 X101.586 Y82.737 E0.53842
G1 X102.326 Y82.316 E0.56674
G1 X102.851 Y82.032 E0.58659
G1 X104.31 Y81.311 E0.64072
G1 X105.03 Y80.971 E0.6672
G1 X105.445 Y80.786 E0.68232
G1 X106.216 Y80.464 E0.71011
G1 X107.257 Y80.052 E0.74734
G1 X108.123 Y79.727 E0.77811
G1 X108.685 Y79.533 E0.79788
G1 X109.905 Y79.149 E0.84042
G1 X110.758 Y78.895 E0.87002
G1 X111.328 Y78.739 E0.88968
G1 X113.084 Y78.327 E0.94967
G1 X114.006 Y78.134 E0.981
G1 X114.587 Y78.029 E1.00064
G1 X116.065 Y77.803 E1.05037
G1 X117.066 Y77.672 E1.08394
G1 X117.732 Y77.607 E1.1062
G1 X119.014 Y77.51 E1.14896
G1 X119.72 Y77.467 E1.17249
G1 X120.283 Y77.444 E1.19123
G1 X122.126 Y77.438 E1.25253
G1 X123.074 Y77.458 E1.28407
G1 X123.661 Y77.487 E1.30361
G1 X125.095 Y77.595 E1.35144
G1 X126.188 Y77.702 E1.38797
G1 X126.88 Y77.793 E1.41118
G1 X128.135 Y77.987 E1.45342
G1 X129.053 Y78.146 E1.48441
G1 X129.627 Y78.262 E1.50389
G1 X131.149 Y78.613 E1.55584
G1 X132.033 Y78.838 E1.58618
G1 X132.574 Y78.99 E1.60487
G1 X133.788 Y79.366 E1.64714
G1 X134.606 Y79.633 E1.67576
G1 X135.17 Y79.831 E1.69564
G1 X136.801 Y80.472 E1.75392
G1 X137.446 Y80.739 E1.77714
G1 X138.295 Y81.12 E1.80809
G1 X139.695 Y81.804 E1.85992
G1 X140.465 Y82.201 E1.88873
G1 X140.973 Y82.48 E1.90801
G1 X142.053 Y83.111 E1.94961
G1 X143.062 Y83.728 E1.98895
G1 X143.545 Y84.042 E2.00811
G1 X144.725 Y84.856 E2.05579
G1 X145.609 Y85.494 E2.09205
G1 X146.053 Y85.838 E2.11073
G1 X147.061 Y86.653 E2.15384
G1 X147.652 Y87.144 E2.1794
G1 X148.081 Y87.516 E2.19828
G1 X149.374 Y88.726 E2.25718
G1 X149.897 Y89.234 E2.28143
G1 X150.537 Y89.894 E2.31201
G1 X151.396 Y90.836 E2.35441
G1 X151.96 Y91.471 E2.38266
G1 X152.275 Y91.842 E2.39885
G1 X152.573 Y92.21 E2.4146
G1 X153.401 Y93.272 E2.45939
G1 X153.846 Y93.859 E2.48389
G1 X154.107 Y94.219 E2.49867
G1 X154.48 Y94.758 E2.52048
G1 X155.087 Y95.67 E2.55691
G1 X155.7 Y96.626 E2.59469
G1 X155.993 Y97.122 E2.61385
G1 X156.656 Y98.302 E2.65886
G1 X157.031 Y98.993 E2.68501
G1 X157.298 Y99.512 E2.70443
G1 X158.036 Y101.081 E2.76209
G1 X158.326 Y101.728 E2.78568
G1 X158.55 Y102.26 E2.80488
G1 X159.177 Y103.905 E2.86343
G1 X159.414 Y104.562 E2.88666
G1 X159.593 Y105.094 E2.90533
G1 X160.096 Y106.793 E2.96426
G1 X160.283 Y107.468 E2.98756
G1 X160.428 Y108.04 E3.00718
G1 X160.764 Y109.594 E3.06006
G1 X160.98 Y110.718 E3.09813
G1 X161.076 Y111.309 E3.11805
G1 X161.268 Y112.738 E3.166
G1 X161.39 Y113.827 E3.20245
G1 X161.441 Y114.482 E3.2243
G1 X161.517 Y115.841 E3.26957
G1 X161.549 Y116.714 E3.29863
G1 X161.555 Y117.293 E3.31789
G1 X161.534 Y118.605 E3.36153
G1 X161.487 Y119.828 E3.40224
G1 X161.449 Y120.396 E3.42117
G1 X161.33 Y121.673 E3.46383
G1 X161.241 Y122.497 E3.49139
G1 X161.111 Y123.43 E3.52273
G1 X160.857 Y124.909 E3.57264
G1 X160.684 Y125.804 E3.60296
G1 X160.557 Y126.38 E3.62257
G1 X160.245 Y127.63 E3.66542
G1 X159.94 Y128.754 E3.70416
G1 X159.772 Y129.308 E3.72342
G1 X159.371 Y130.519 E3.76584
G1 X159.091 Y131.324 E3.79419
G1 X158.755 Y132.205 E3.82555
G1 X158.292 Y133.313 E3.86549
G1 X157.813 Y134.4 E3.905
G1 X157.556 Y134.939 E3.92486
G1 X156.91 Y136.205 E3.97213
G1 X156.57 Y136.847 E3.9963
G1 X156.304 Y137.325 E4.01449
G1 X155.499 Y138.657 E4.06626
G1 X154.996 Y139.456 E4.09766
G1 X154.697 Y139.91 E4.11574
G1 X154.492 Y140.206 E4.12772
G1 X153.666 Y141.354 E4.17475
G1 X153.272 Y141.886 E4.19677
G1 X152.692 Y142.622 E4.22794
G1 X151.886 Y143.583 E4.26966
G1 X151.108 Y144.473 E4.30897
G1 X150.699 Y144.914 E4.32898
G1 X149.719 Y145.913 E4.37552
G1 X148.896 Y146.718 E4.41381
G1 X148.348 Y147.217 E4.43846
G1 X147.435 Y148.013 E4.47875
G1 X146.713 Y148.62 E4.51012
G1 X146.249 Y148.989 E4.52984
G1 X145.012 Y149.917 E4.58128
G1 X144.274 Y150.447 E4.6115
G1 X143.792 Y150.773 E4.63085
G1 X142.577 Y151.551 E4.67884
G1 X141.986 Y151.917 E4.70196
G1 X141.5 Y152.203 E4.72071
G1 X139.847 Y153.096 E4.7832
G1 X139.05 Y153.502 E4.81295
G1 X138.518 Y153.755 E4.83254
G1 X137.126 Y154.37 E4.88316
G1 X136.262 Y154.731 E4.9143
G1 X135.724 Y154.939 E4.93349
G1 X134.289 Y155.449 E4.98414
G1 X133.409 Y155.74 E5.01497
G1 X132.855 Y155.907 E5.03421
G1 X131.684 Y156.227 E5.07459
G1 X130.461 Y156.534 E5.11653
G1 X129.89 Y156.661 E5.13598
G1 X128.477 Y156.933 E5.18384
G1 X127.799 Y157.053 E5.20675
G1 X127.253 Y157.138 E5.22512
G1 X125.711 Y157.321 E5.27677
G1 X124.495 Y157.438 E5.3174
G1 X123.896 Y157.478 E5.33737
G1 X122.374 Y157.536 E5.38803
G1 X121.453 Y157.551 E5.41866
G1 X120.881 Y157.545 E5.43769
G1 X119.623 Y157.5 E5.47956
G1 X118.479 Y157.437 E5.51767
G1 X117.884 Y157.387 E5.53753
G1 X116.4 Y157.218 E5.5872
G1 X115.41 Y157.084 E5.62043
G1 X114.84 Y156.991 E5.63964
G1 X113.438 Y156.725 E5.6871
G1 X112.744 Y156.583 E5.71066
G1 X112.133 Y156.439 E5.73154
G1 X110.494 Y156.003 E5.78795
G1 X109.833 Y155.814 E5.81082
G1 X109.296 Y155.649 E5.8295
G1 X107.729 Y155.102 E5.8847
G1 X106.673 Y154.707 E5.9222
G1 X106.089 Y154.466 E5.94322
G1 X104.966 Y153.971 E5.98403
G1 X103.899 Y153.475 E6.02317
G1 X103.372 Y153.212 E6.04276
G1 X102.094 Y152.529 E6.09096
G1 X101.2 Y152.029 E6.12502
G1 X100.71 Y151.732 E6.14408
G1 X99.62 Y151.039 E6.18704
G1 X98.939 Y150.592 E6.21414
G1 X98.429 Y150.24 E6.23475
G1 X97.141 Y149.284 E6.2881
G1 X96.261 Y148.598 E6.32521
G1 X95.817 Y148.231 E6.34437
G1 X94.674 Y147.232 E6.39486
G1 X93.979 Y146.598 E6.42615
G1 X93.558 Y146.193 E6.44558
G1 X92.532 Y145.15 E6.49424
G1 X91.829 Y144.407 E6.52826
G1 X91.454 Y143.982 E6.54711
G1 X90.622 Y142.999 E6.58994
G1 X90.07 Y142.325 E6.61892
G1 X89.816 Y142.001 E6.63261
G1 X87.827 Y139.369 E6.74234
G1 X86.239 Y137.389 E6.82676
G1 X84.599 Y135.461 E6.91094
G1 X82.913 Y133.588 E6.99476
G1 X81.196 Y131.786 E7.07755
G1 X79.396 Y130 E7.16189
G1 X77.547 Y128.265 E7.24622
G1 X76.185 Y127.05 E7.30692
G1 X75.512 Y126.396 E7.33814
G1 X74.898 Y125.687 E7.36933
G1 X74.346 Y124.929 E7.40052
G1 X73.861 Y124.126 E7.43172
G1 X73.446 Y123.285 E7.46291
G1 X73.105 Y122.412 E7.49408
G1 X72.839 Y121.512 E7.5253
G1 X72.65 Y120.594 E7.55647
G1 X72.54 Y119.662 E7.58769
G1 X72.515 Y119.182 E7.60367
G1 X72.5 Y118.519 E7.62573
G1 X72.501 Y116.674 E7.68709
G1 X72.511 Y115.975 E7.71035
G1 X72.565 Y115.038 E7.74156
G1 X72.697 Y114.11 E7.77274
G1 X72.909 Y113.196 E7.80394
G1 X73.198 Y112.304 E7.83513
G1 X73.561 Y111.439 E7.86633
G1 X73.997 Y110.609 E7.89751
G1 X74.502 Y109.819 E7.9287
G1 X75.073 Y109.074 E7.95992
G1 X75.705 Y108.381 E7.99111
G1 X76.122 Y107.982 E8.01031
G1 X77.43 Y106.807 E8.06879
G1 X79.268 Y105.093 E8.15238
G1 X81.061 Y103.32 E8.23625
G1 X82.794 Y101.508 E8.31964
G1 X84.473 Y99.65 E8.40293
G1 X86.124 Y97.715 E8.48753
G1 X87.692 Y95.769 E8.57065
G1 X89.524 Y93.367 E8.67113
G1 F2700 E3.67113
G0 F6000 X86.441 Y97.96
G1 F2700 E8.67113
G1 F900 X88.016 Y96.005 E8.75463
G1 X89.84 Y93.612 E8.85471
G1 X90.479 Y92.792 E8.88928
G1 X91.191 Y91.913 E8.92691
G1 X91.56 Y91.483 E8.94575
G1 X92.535 Y90.408 E8.99402
G1 X93.02 Y89.889 E9.01765
G1 X93.439 Y89.465 E9.03747
G1 X94.631 Y88.327 E9.09229
G1 X95.185 Y87.816 E9.11735
G1 X95.55 Y87.495 E9.13352
G1 X95.883 Y87.215 E9.14799
G1 X96.977 Y86.328 E9.19484
G1 X97.486 Y85.927 E9.21639
G1 X97.962 Y85.568 E9.23622
G1 X99.405 Y84.562 E9.29472
G1 X100.25 Y84.003 E9.32842
G1 X100.73 Y83.704 E9.34723
G1 X101.924 Y83.004 E9.39327
G1 X102.798 Y82.513 E9.42661
G1 X103.328 Y82.238 E9.44647
G1 X104.486 Y81.67 E9.48937
G1 X105.2 Y81.333 E9.51563
G1 X105.6 Y81.154 E9.5302
G1 X106.163 Y80.917 E9.55052
G1 X107.209 Y80.5 E9.58797
G1 X108.264 Y80.102 E9.62547
G1 X108.806 Y79.915 E9.64454
G1 X110.026 Y79.531 E9.68708
G1 X111.166 Y79.196 E9.7266
G1 X111.738 Y79.049 E9.74625
G1 X112.929 Y78.771 E9.78692
G1 X114.088 Y78.526 E9.82633
G1 X114.648 Y78.424 E9.84526
G1 X116.119 Y78.199 E9.89475
G1 X117.107 Y78.07 E9.92789
G1 X117.763 Y78.006 E9.94981
G1 X118.876 Y77.921 E9.98694
G1 X119.745 Y77.867 E10.0159
G1 X120.297 Y77.844 E10.03427
G1 X122.118 Y77.838 E10.09484
G1 X123.066 Y77.858 E10.12638
G1 X123.631 Y77.885 E10.14519
G1 X125.059 Y77.993 E10.19282
G1 X125.753 Y78.056 E10.216
G1 X126.56 Y78.152 E10.24303
G1 X127.86 Y78.348 E10.28676
G1 X128.985 Y78.541 E10.32472
G1 X129.538 Y78.651 E10.34348
G1 X130.798 Y78.939 E10.38646
G1 X131.935 Y79.226 E10.42547
G1 X132.456 Y79.373 E10.44347
G1 X133.835 Y79.801 E10.4915
G1 X134.482 Y80.013 E10.51414
G1 X135.034 Y80.207 E10.5336
G1 X136.648 Y80.842 E10.59129
G1 X137.293 Y81.109 E10.61451
G1 X137.793 Y81.327 E10.63265
G1 X139.512 Y82.16 E10.69618
G1 X140.282 Y82.557 E10.725
G1 X140.771 Y82.826 E10.74356
G1 X142.048 Y83.574 E10.79278
G1 X142.853 Y84.068 E10.8242
G1 X143.319 Y84.371 E10.84268
G1 X144.339 Y85.073 E10.88387
G1 X145.367 Y85.812 E10.92598
G1 X145.802 Y86.149 E10.94428
G1 X146.81 Y86.964 E10.98739
G1 X147.396 Y87.451 E11.01273
G1 X147.816 Y87.816 E11.03124
G1 X149.096 Y89.013 E11.08953
G1 X149.619 Y89.521 E11.11378
G1 X150.009 Y89.916 E11.13224
G1 X151.202 Y91.219 E11.191
G1 X151.66 Y91.736 E11.21397
G1 X151.964 Y92.094 E11.22959
G1 X152.385 Y92.617 E11.25193
G1 X153.082 Y93.513 E11.28968
G1 X153.527 Y94.1 E11.31418
G1 X153.779 Y94.447 E11.32845
G1 X154.147 Y94.98 E11.34999
G1 X154.829 Y96.005 E11.39094
G1 X155.174 Y96.538 E11.41205
G1 X155.49 Y97.053 E11.43215
G1 X156.224 Y98.348 E11.48166
G1 X156.827 Y99.466 E11.52391
G1 X157.079 Y99.975 E11.5428
G1 X157.671 Y101.244 E11.58937
G1 X157.961 Y101.891 E11.61295
G1 X158.181 Y102.412 E11.63176
G1 X158.742 Y103.881 E11.68407
G1 X159.038 Y104.698 E11.71297
G1 X159.213 Y105.218 E11.73122
G1 X159.667 Y106.749 E11.78433
G1 X159.897 Y107.575 E11.81285
G1 X160.039 Y108.135 E11.83206
G1 X160.372 Y109.677 E11.88453
G1 X160.587 Y110.793 E11.92233
G1 X160.68 Y111.362 E11.94151
G1 X160.849 Y112.616 E11.98359
G1 X160.991 Y113.861 E12.02527
G1 X161.042 Y114.505 E12.04676
G1 X161.107 Y115.636 E12.08444
G1 X161.149 Y116.729 E12.12082
G1 X161.155 Y117.287 E12.13938
G1 X161.134 Y118.599 E12.18302
G1 X161.087 Y119.812 E12.22339
G1 X161.05 Y120.359 E12.24163
G1 X160.914 Y121.805 E12.28994
G1 X160.843 Y122.454 E12.31165
G1 X160.769 Y123.023 E12.33074
G1 X160.507 Y124.598 E12.38384
G1 X160.291 Y125.728 E12.4221
G1 X160.168 Y126.283 E12.44101
G1 X159.796 Y127.765 E12.49183
G1 X159.554 Y128.649 E12.52232
G1 X159.393 Y129.182 E12.54083
G1 X158.992 Y130.393 E12.58326
G1 X158.714 Y131.192 E12.6114
G1 X158.385 Y132.051 E12.642
G1 X157.834 Y133.364 E12.68936
G1 X157.447 Y134.238 E12.72115
G1 X157.2 Y134.758 E12.74029
G1 X156.634 Y135.869 E12.78177
G1 X156.216 Y136.66 E12.81152
G1 X155.956 Y137.127 E12.8293
G1 X155.067 Y138.595 E12.88638
G1 X154.658 Y139.243 E12.91187
G1 X154.167 Y139.972 E12.9411
G1 X153.344 Y141.116 E12.98797
G1 X152.95 Y141.648 E13.00999
G1 X152.386 Y142.365 E13.04033
G1 X151.58 Y143.326 E13.08205
G1 X150.808 Y144.209 E13.12106
G1 X150.413 Y144.635 E13.14038
G1 X149.55 Y145.516 E13.1814
G1 X148.911 Y146.15 E13.21134
G1 X148.625 Y146.423 E13.22449
G1 X148.085 Y146.916 E13.24881
G1 X147.335 Y147.572 E13.28195
G1 X146.455 Y148.314 E13.32024
G1 X146.008 Y148.669 E13.33922
G1 X144.778 Y149.592 E13.39037
G1 X144.04 Y150.122 E13.42059
G1 X143.576 Y150.437 E13.43924
G1 X142.366 Y151.211 E13.48702
G1 X141.775 Y151.577 E13.51014
G1 X141.3 Y151.857 E13.52848
G1 X139.879 Y152.627 E13.58223
G1 X138.868 Y153.145 E13.62001
G1 X138.356 Y153.389 E13.63888
G1 X136.972 Y154.001 E13.68921
G1 X136.108 Y154.362 E13.72035
G1 X135.589 Y154.562 E13.73885
G1 X134.163 Y155.069 E13.78919
G1 X133.283 Y155.36 E13.82002
G1 X132.749 Y155.521 E13.83857
G1 X131.578 Y155.841 E13.87894
G1 X130.364 Y156.146 E13.92058
G1 X129.814 Y156.268 E13.93931
G1 X128.407 Y156.539 E13.98697
G1 X127.729 Y156.659 E14.00987
G1 X127.195 Y156.742 E14.02785
G1 X125.665 Y156.924 E14.07909
G1 X124.457 Y157.04 E14.11946
G1 X123.88 Y157.079 E14.13869
G1 X122.368 Y157.136 E14.18902
G1 X121.447 Y157.151 E14.21965
G1 X120.895 Y157.145 E14.23801
G1 X119.41 Y157.09 E14.28744
G1 X118.502 Y157.038 E14.31769
G1 X117.929 Y156.989 E14.33682
G1 X116.453 Y156.821 E14.38623
G1 X115.463 Y156.687 E14.41945
G1 X114.914 Y156.598 E14.43795
G1 X113.518 Y156.333 E14.48521
G1 X112.824 Y156.191 E14.50877
G1 X112.235 Y156.053 E14.52889
G1 X110.604 Y155.619 E14.58503
G1 X109.943 Y155.43 E14.60789
G1 X109.09 Y155.158 E14.63767
G1 X107.863 Y154.725 E14.68095
G1 X107.107 Y154.446 E14.70775
G1 X106.557 Y154.229 E14.72742
G1 X105.128 Y153.605 E14.77928
G1 X104.068 Y153.113 E14.81815
G1 X103.56 Y152.859 E14.83704
G1 X102.426 Y152.254 E14.87979
G1 X101.691 Y151.849 E14.9077
G1 X101.197 Y151.562 E14.9267
G1 X99.692 Y150.609 E14.98595
G1 X99.159 Y150.258 E15.00718
G1 X98.658 Y149.913 E15.02741
G1 X97.195 Y148.822 E15.08811
G1 X96.508 Y148.284 E15.11713
G1 X96.079 Y147.93 E15.13563
G1 X95.123 Y147.097 E15.1778
G1 X94.248 Y146.302 E15.21712
G1 X93.843 Y145.913 E15.2358
G1 X92.941 Y144.998 E15.27854
G1 X92.341 Y144.371 E15.3074
G1 X91.967 Y143.961 E15.32586
G1 X90.927 Y142.74 E15.3792
G1 X90.38 Y142.072 E15.40792
G1 X90.135 Y141.76 E15.42111
G1 X88.142 Y139.123 E15.53105
G1 X86.54 Y137.126 E15.6162
G1 X84.903 Y135.2 E15.70028
G1 X83.216 Y133.327 E15.78412
G1 X81.466 Y131.49 E15.8685
G1 X79.686 Y129.724 E15.9519
G1 X77.825 Y127.979 E16.03675
G1 X76.451 Y126.752 E16.09802
G1 X75.791 Y126.109 E16.12867
G1 X75.19 Y125.412 E16.15928
G1 X74.652 Y124.665 E16.18989
G1 X74.18 Y123.875 E16.2205
G1 X73.779 Y123.046 E16.25113
G1 X73.451 Y122.186 E16.28175
G1 X73.199 Y121.3 E16.31238
G1 X73.024 Y120.396 E16.34301
G1 X72.915 Y119.17 E16.38395
G1 X72.9 Y118.519 E16.4056
G1 X72.901 Y116.679 E16.4668
G1 X72.911 Y115.98 E16.49005
G1 X72.964 Y115.061 E16.52067
G1 X73.097 Y114.15 E16.55129
G1 X73.308 Y113.254 E16.58191
G1 X73.596 Y112.38 E16.61251
G1 X73.959 Y111.534 E16.64313
G1 X74.394 Y110.722 E16.67377
G1 X74.898 Y109.952 E16.70438
G1 X75.467 Y109.228 E16.73501
G1 X76.391 Y108.279 E16.77906
G1 X77.704 Y107.099 E16.83778
G1 X79.539 Y105.387 E16.92125
G1 X81.33 Y103.616 E17.00502
G1 X83.097 Y101.769 E17.09004
G1 X84.773 Y99.915 E17.17316
G1 X86.441 Y97.96 E17.25864
G1 F2700 E12.25864
G0 F6000 X83.365 Y102.068
G1 F2700 E17.25864
G1 F900 X85.09 Y100.16 E17.34419
G1 X86.741 Y98.225 E17.42879
G1 X88.334 Y96.247 E17.51326
G1 X90.155 Y93.858 E17.61317
G1 X90.794 Y93.038 E17.64775
G1 X91.501 Y92.165 E17.68511
G1 X91.856 Y91.751 E17.70325
G1 X92.719 Y90.798 E17.74601
G1 X93.313 Y90.162 E17.77496
G1 X93.715 Y89.754 E17.79401
G1 X94.902 Y88.621 E17.84858
G1 X95.456 Y88.11 E17.87365
G1 X95.808 Y87.801 E17.88923
G1 X96.284 Y87.402 E17.90989
G1 X97.116 Y86.728 E17.9455
G1 X97.734 Y86.241 E17.97167
G1 X98.2 Y85.89 E17.99108
G1 X99.625 Y84.896 E18.04886
G1 X100.47 Y84.337 E18.08256
G1 X100.932 Y84.049 E18.10067
G1 X102.122 Y83.351 E18.14655
G1 X102.721 Y83.011 E18.16946
G1 X103.225 Y82.739 E18.18851
G1 X104.812 Y81.957 E18.24736
G1 X105.371 Y81.694 E18.2679
G1 X105.756 Y81.523 E18.28191
G1 X106.511 Y81.207 E18.30914
