;FLAVOR:Marlin
;TIME:927
;Filament used: 0.458164m
;Layer height: 0.2
;MINX:97.964
;MINY:97.964
;MINZ:0.2
;MAXX:137.036
;MAXY:137.036
;MAXZ:10
;Generated with Cura_SteamEngine main
M140 S70
M105
M190 S70
M104 S240
M105
M109 S240
M82 ;absolute extrusion mode
; Ender 3 Custom Start G-code
G92 E0 ; Reset Extruder
G28 ; Home all axes
G1 Z2.0 F3000 ; Move Z Axis up little to prevent scratching of Heat Bed
G1 X0.1 Y20 Z0.3 F5000.0 ; Move to start position
G1 X0.1 Y200.0 Z0.3 F1500.0 E15 ; Draw the first line
G1 X0.4 Y200.0 Z0.3 F5000.0 ; Move to side a little
G1 X0.4 Y20 Z0.3 F1500.0 E30 ; Draw the second line
G92 E0 ; Reset Extruder
G1 Z2.0 F3000 ; Move Z Axis up little to prevent scratching of Heat Bed
G1 X5 Y20 Z0.3 F5000.0 ; Move over to prevent blob squish
G92 E0
G92 E0
G1 F2700 E-5
;LAYER_COUNT:50
;LAYER:0
M107
G0 F6000 X103.611 Y103.761 Z0.2
G0 X97.964 Y117.484
;TYPE:SKIRT
G1 F2700 E0
G1 F900 X97.972 Y116.954 E0.01763
G1 X98.004 Y116.269 E0.04044
G1 X98.049 Y115.689 E0.05979
G1 X98.125 Y114.997 E0.08294
G1 X98.194 Y114.51 E0.0993
G1 X98.308 Y113.848 E0.12164
G1 X98.414 Y113.33 E0.13923
G1 X98.579 Y112.641 E0.16279
G1 X98.726 Y112.102 E0.18137
G1 X98.929 Y111.44 E0.20441
G1 X99.107 Y110.919 E0.22272
G1 X99.35 Y110.274 E0.24564
G1 X99.538 Y109.819 E0.26202
G1 X99.813 Y109.207 E0.28433
G1 X100.067 Y108.685 E0.30364
G1 X100.396 Y108.06 E0.32713
G1 X100.64 Y107.631 E0.34355
G1 X100.993 Y107.053 E0.36607
G1 X101.302 Y106.58 E0.38486
G1 X101.693 Y106.02 E0.40758
G1 X101.998 Y105.611 E0.42455
G1 X102.437 Y105.061 E0.44796
G1 X102.801 Y104.633 E0.46664
G1 X103.254 Y104.132 E0.48911
G1 X103.611 Y103.761 E0.50623
G1 X104.14 Y103.247 E0.53077
G1 X104.556 Y102.869 E0.54946
G1 X105.072 Y102.428 E0.57204
G1 X105.511 Y102.076 E0.59075
G1 X106.054 Y101.667 E0.61336
G1 X106.437 Y101.397 E0.62895
G1 X107.013 Y101.018 E0.65188
G1 X107.509 Y100.713 E0.67125
G1 X108.109 Y100.37 E0.69423
G1 X108.57 Y100.125 E0.7116
G1 X109.217 Y99.807 E0.73558
G1 X109.728 Y99.577 E0.75421
G1 X110.339 Y99.324 E0.77621
G1 X110.8 Y99.149 E0.79261
G1 X111.455 Y98.924 E0.81564
G1 X111.992 Y98.758 E0.83434
G1 X112.643 Y98.578 E0.8568
G1 X113.149 Y98.455 E0.87412
G1 X113.834 Y98.312 E0.8974
G1 X114.389 Y98.214 E0.91614
G1 X115.099 Y98.112 E0.94
G1 X115.608 Y98.056 E0.95703
G1 X116.269 Y98.003 E0.97909
G1 X116.816 Y97.976 E0.9973
G1 X117.527 Y97.964 E1.02095
G1 X118.049 Y97.972 E1.03832
G1 X118.731 Y98.004 E1.06103
G1 X119.311 Y98.049 E1.08038
G1 X120.003 Y98.125 E1.10353
G1 X120.49 Y98.194 E1.11989
G1 X121.152 Y98.308 E1.14223
G1 X121.67 Y98.414 E1.15982
G1 X122.359 Y98.579 E1.18338
G1 X122.898 Y98.726 E1.20196
G1 X123.56 Y98.929 E1.22499
G1 X124.081 Y99.107 E1.24331
G1 X124.726 Y99.35 E1.26623
G1 X125.181 Y99.538 E1.2826
G1 X125.793 Y99.813 E1.30492
G1 X126.315 Y100.067 E1.32423
G1 X126.94 Y100.396 E1.34772
G1 X127.369 Y100.64 E1.36414
G1 X127.947 Y100.993 E1.38666
G1 X128.42 Y101.302 E1.40545
G1 X128.98 Y101.693 E1.42817
G1 X129.389 Y101.998 E1.44514
G1 X129.939 Y102.437 E1.46854
G1 X130.367 Y102.801 E1.48723
G1 X130.868 Y103.254 E1.5097
G1 X131.239 Y103.611 E1.52682
G1 X131.758 Y104.145 E1.55159
G1 X132.131 Y104.556 E1.57005
G1 X132.558 Y105.055 E1.59189
G1 X132.915 Y105.499 E1.61084
G1 X133.328 Y106.048 E1.63369
G1 X133.597 Y106.429 E1.6492
G1 X133.983 Y107.014 E1.67251
G1 X134.289 Y107.512 E1.69196
G1 X134.63 Y108.109 E1.71482
G1 X134.875 Y108.57 E1.73219
G1 X135.193 Y109.217 E1.75616
G1 X135.423 Y109.728 E1.7748
G1 X135.673 Y110.332 E1.79654
G1 X135.848 Y110.792 E1.81291
G1 X136.076 Y111.454 E1.8362
G1 X136.242 Y111.991 E1.8549
G1 X136.423 Y112.647 E1.87753
G1 X136.546 Y113.154 E1.89488
G1 X136.688 Y113.831 E1.91789
G1 X136.786 Y114.385 E1.9366
G1 X136.888 Y115.098 E1.96056
G1 X136.944 Y115.607 E1.97759
G1 X136.996 Y116.261 E1.99941
G1 X137.023 Y116.801 E2.01739
G1 X137.036 Y117.516 E2.04118
G1 X137.028 Y118.046 E2.05881
G1 X136.996 Y118.731 E2.08162
G1 X136.951 Y119.311 E2.10096
G1 X136.875 Y120.003 E2.12412
G1 X136.806 Y120.49 E2.14048
G1 X136.692 Y121.152 E2.16282
G1 X136.586 Y121.67 E2.18041
G1 X136.421 Y122.359 E2.20397
G1 X136.274 Y122.898 E2.22255
G1 X136.071 Y123.56 E2.24558
G1 X135.893 Y124.081 E2.26389
G1 X135.656 Y124.712 E2.28631
G1 X135.472 Y125.159 E2.30239
G1 X135.19 Y125.787 E2.32529
G1 X134.932 Y126.317 E2.34489
G1 X134.604 Y126.94 E2.36831
G1 X134.36 Y127.369 E2.38473
G1 X134.007 Y127.947 E2.40725
G1 X133.698 Y128.42 E2.42604
G1 X133.307 Y128.98 E2.44876
G1 X133.002 Y129.389 E2.46573
G1 X132.563 Y129.939 E2.48913
G1 X132.199 Y130.367 E2.50782
G1 X131.746 Y130.868 E2.53029
G1 X131.389 Y131.239 E2.54741
G1 X130.855 Y131.758 E2.57218
G1 X130.444 Y132.131 E2.59064
G1 X129.945 Y132.558 E2.61248
G1 X129.501 Y132.915 E2.63143
G1 X128.946 Y133.333 E2.65454
G1 X128.563 Y133.603 E2.67013
G1 X127.987 Y133.982 E2.69306
G1 X127.491 Y134.287 E2.71243
G1 X126.891 Y134.63 E2.73541
G1 X126.43 Y134.875 E2.75278
G1 X125.783 Y135.193 E2.77676
G1 X125.272 Y135.423 E2.79539
G1 X124.661 Y135.676 E2.81739
G1 X124.2 Y135.851 E2.83379
G1 X123.545 Y136.076 E2.85682
G1 X123.008 Y136.242 E2.87552
G1 X122.357 Y136.422 E2.89798
G1 X121.851 Y136.545 E2.9153
G1 X121.166 Y136.688 E2.93858
G1 X120.611 Y136.786 E2.95732
G1 X119.901 Y136.888 E2.98118
G1 X119.392 Y136.944 E2.99821
G1 X118.738 Y136.996 E3.02003
G1 X118.198 Y137.023 E3.03801
G1 X117.483 Y137.036 E3.0618
G1 X116.954 Y137.028 E3.0794
G1 X116.269 Y136.996 E3.1022
G1 X115.689 Y136.951 E3.12155
G1 X114.997 Y136.875 E3.14471
G1 X114.51 Y136.806 E3.16107
G1 X113.848 Y136.692 E3.18341
G1 X113.33 Y136.586 E3.201
G1 X112.641 Y136.421 E3.22456
G1 X112.102 Y136.274 E3.24314
G1 X111.441 Y136.072 E3.26613
G1 X110.911 Y135.891 E3.28476
G1 X110.251 Y135.642 E3.30822
G1 X109.805 Y135.457 E3.32428
G1 X109.207 Y135.187 E3.3461
G1 X108.685 Y134.933 E3.36541
G1 X108.06 Y134.604 E3.3889
G1 X107.631 Y134.36 E3.40532
G1 X107.053 Y134.007 E3.42784
G1 X106.58 Y133.698 E3.44663
G1 X106.02 Y133.307 E3.46935
G1 X105.611 Y133.002 E3.48632
G1 X105.059 Y132.562 E3.5098
G1 X104.63 Y132.197 E3.52853
G1 X104.131 Y131.745 E3.55093
G1 X103.76 Y131.388 E3.56805
G1 X103.24 Y130.853 E3.59287
G1 X102.868 Y130.443 E3.61128
G1 X102.442 Y129.945 E3.63308
G1 X102.085 Y129.501 E3.65202
G1 X101.667 Y128.946 E3.67513
G1 X101.397 Y128.563 E3.69072
G1 X101.021 Y127.992 E3.71346
G1 X100.715 Y127.495 E3.73287
G1 X100.364 Y126.883 E3.75634
G1 X100.12 Y126.423 E3.77366
G1 X99.807 Y125.783 E3.79735
G1 X99.577 Y125.272 E3.81599
G1 X99.324 Y124.661 E3.83798
G1 X99.149 Y124.2 E3.85438
G1 X98.924 Y123.545 E3.87742
G1 X98.758 Y123.008 E3.89611
G1 X98.578 Y122.357 E3.91858
G1 X98.455 Y121.851 E3.9359
G1 X98.312 Y121.166 E3.95917
G1 X98.214 Y120.611 E3.97792
G1 X98.112 Y119.901 E4.00178
G1 X98.056 Y119.392 E4.01881
G1 X98.004 Y118.739 E4.04059
G1 X97.977 Y118.2 E4.05854
G1 X97.964 Y117.484 E4.08236
G0 F6000 X98.364 Y117.49
G1 F900 X98.372 Y116.96 E4.09999
G1 X98.403 Y116.3 E4.12197
G1 X98.448 Y115.72 E4.14132
G1 X98.521 Y115.053 E4.16363
G1 X98.59 Y114.566 E4.17999
G1 X98.7 Y113.928 E4.20153
G1 X98.806 Y113.41 E4.21911
G1 X98.965 Y112.746 E4.24182
G1 X99.112 Y112.207 E4.2604
G1 X99.307 Y111.569 E4.28259
G1 X99.485 Y111.048 E4.3009
G1 X99.719 Y110.427 E4.32298
G1 X99.907 Y109.972 E4.33935
G1 X100.172 Y109.382 E4.36086
G1 X100.426 Y108.86 E4.38017
G1 X100.744 Y108.257 E4.40284
G1 X100.988 Y107.828 E4.41926
G1 X101.328 Y107.272 E4.44094
G1 X101.637 Y106.799 E4.45973
G1 X102.014 Y106.259 E4.48163
G1 X102.319 Y105.85 E4.4986
G1 X102.741 Y105.32 E4.52113
G1 X103.105 Y104.892 E4.53982
G1 X103.542 Y104.409 E4.56149
G1 X103.899 Y104.038 E4.57861
G1 X104.409 Y103.543 E4.60225
G1 X104.825 Y103.165 E4.62094
G1 X105.322 Y102.74 E4.64269
G1 X105.761 Y102.388 E4.66141
G1 X106.284 Y101.994 E4.68319
G1 X106.667 Y101.724 E4.69877
G1 X107.223 Y101.359 E4.7209
G1 X107.719 Y101.054 E4.74026
G1 X108.296 Y100.723 E4.76239
G1 X108.757 Y100.478 E4.77975
G1 X109.381 Y100.172 E4.80287
G1 X109.892 Y99.942 E4.8215
G1 X110.481 Y99.698 E4.84271
G1 X110.942 Y99.523 E4.85911
G1 X111.573 Y99.306 E4.8813
G1 X112.11 Y99.14 E4.9
G1 X112.737 Y98.967 E4.92163
G1 X113.243 Y98.844 E4.93895
G1 X113.904 Y98.705 E4.96142
G1 X114.459 Y98.607 E4.98016
G1 X115.143 Y98.51 E5.00314
G1 X115.652 Y98.454 E5.02017
G1 X116.288 Y98.403 E5.04139
G1 X116.835 Y98.376 E5.05961
G1 X117.52 Y98.364 E5.08239
G1 X118.042 Y98.372 E5.09976
G1 X118.7 Y98.403 E5.12167
G1 X119.28 Y98.448 E5.14102
G1 X119.947 Y98.521 E5.16333
G1 X120.434 Y98.59 E5.17969
G1 X121.072 Y98.7 E5.20123
G1 X121.59 Y98.806 E5.21881
G1 X122.254 Y98.965 E5.24152
G1 X122.793 Y99.112 E5.2601
G1 X123.431 Y99.307 E5.28229
G1 X123.952 Y99.485 E5.3006
G1 X124.573 Y99.719 E5.32268
G1 X125.028 Y99.907 E5.33905
G1 X125.618 Y100.172 E5.36056
G1 X126.14 Y100.426 E5.37987
G1 X126.743 Y100.744 E5.40254
G1 X127.172 Y100.988 E5.41896
G1 X127.728 Y101.328 E5.44063
G1 X128.201 Y101.637 E5.45943
G1 X128.741 Y102.014 E5.48133
G1 X129.15 Y102.319 E5.4983
G1 X129.68 Y102.741 E5.52083
G1 X130.108 Y103.105 E5.53952
G1 X130.591 Y103.542 E5.56118
G1 X130.962 Y103.899 E5.57831
G1 X131.461 Y104.413 E5.60214
G1 X131.834 Y104.824 E5.6206
G1 X132.246 Y105.306 E5.64169
G1 X132.603 Y105.75 E5.66064
G1 X133.001 Y106.278 E5.68263
G1 X133.27 Y106.659 E5.69814
G1 X133.642 Y107.224 E5.72064
G1 X133.948 Y107.722 E5.74008
G1 X134.277 Y108.296 E5.76208
G1 X134.522 Y108.757 E5.77945
G1 X134.828 Y109.381 E5.80256
G1 X135.058 Y109.892 E5.8212
G1 X135.299 Y110.474 E5.84215
G1 X135.474 Y110.934 E5.85852
G1 X135.694 Y111.572 E5.88097
G1 X135.86 Y112.109 E5.89966
G1 X136.034 Y112.741 E5.92147
G1 X136.157 Y113.248 E5.93882
G1 X136.294 Y113.901 E5.96101
G1 X136.392 Y114.455 E5.97972
G1 X136.49 Y115.142 E6.0028
G1 X136.546 Y115.651 E6.01983
G1 X136.597 Y116.281 E6.04086
G1 X136.624 Y116.821 E6.05884
G1 X136.636 Y117.51 E6.08176
G1 X136.628 Y118.04 E6.09939
G1 X136.597 Y118.7 E6.12137
G1 X136.552 Y119.28 E6.14071
G1 X136.479 Y119.947 E6.16303
G1 X136.41 Y120.434 E6.17939
G1 X136.3 Y121.072 E6.20092
G1 X136.194 Y121.59 E6.21851
G1 X136.035 Y122.254 E6.24122
G1 X135.888 Y122.793 E6.2598
G1 X135.693 Y123.431 E6.28199
G1 X135.515 Y123.952 E6.3003
G1 X135.286 Y124.56 E6.32191
G1 X135.102 Y125.007 E6.33799
G1 X134.831 Y125.611 E6.36001
G1 X134.573 Y126.141 E6.37961
G1 X134.256 Y126.743 E6.40224
G1 X134.012 Y127.172 E6.41866
G1 X133.672 Y127.728 E6.44033
G1 X133.363 Y128.201 E6.45912
G1 X132.986 Y128.741 E6.48103
G1 X132.681 Y129.15 E6.498
G1 X132.259 Y129.68 E6.52053
G1 X131.895 Y130.108 E6.53922
G1 X131.458 Y130.591 E6.56088
G1 X131.101 Y130.962 E6.57801
G1 X130.587 Y131.461 E6.60183
G1 X130.176 Y131.834 E6.62029
G1 X129.694 Y132.246 E6.64138
G1 X129.25 Y132.603 E6.66033
G1 X128.716 Y133.006 E6.68258
G1 X128.333 Y133.276 E6.69817
G1 X127.777 Y133.641 E6.72029
G1 X127.281 Y133.946 E6.73966
G1 X126.704 Y134.277 E6.76178
G1 X126.243 Y134.522 E6.77915
G1 X125.619 Y134.828 E6.80226
G1 X125.108 Y135.058 E6.8209
G1 X124.519 Y135.302 E6.8421
G1 X124.058 Y135.477 E6.8585
G1 X123.427 Y135.694 E6.8807
G1 X122.89 Y135.86 E6.89939
G1 X122.263 Y136.033 E6.92103
G1 X121.757 Y136.156 E6.93835
G1 X121.096 Y136.295 E6.96081
G1 X120.541 Y136.393 E6.97956
G1 X119.857 Y136.49 E7.00253
G1 X119.348 Y136.546 E7.01957
G1 X118.718 Y136.597 E7.04059
G1 X118.178 Y136.624 E7.05857
G1 X117.489 Y136.636 E7.08149
G1 X116.96 Y136.628 E7.09909
G1 X116.3 Y136.597 E7.12106
G1 X115.72 Y136.552 E7.14041
G1 X115.053 Y136.479 E7.16273
G1 X114.566 Y136.41 E7.17909
G1 X113.928 Y136.3 E7.20062
G1 X113.41 Y136.194 E7.21821
G1 X112.746 Y136.035 E7.24092
G1 X112.207 Y135.888 E7.2595
G1 X111.57 Y135.693 E7.28166
G1 X111.04 Y135.512 E7.30028
G1 X110.405 Y135.272 E7.32286
G1 X109.959 Y135.087 E7.33892
G1 X109.382 Y134.828 E7.35996
G1 X108.86 Y134.574 E7.37926
G1 X108.257 Y134.256 E7.40194
G1 X107.828 Y134.012 E7.41835
G1 X107.272 Y133.672 E7.44003
G1 X106.799 Y133.363 E7.45882
G1 X106.259 Y132.986 E7.48073
G1 X105.85 Y132.681 E7.4977
G1 X105.318 Y132.257 E7.52032
G1 X104.889 Y131.892 E7.53906
G1 X104.408 Y131.457 E7.56063
G1 X104.037 Y131.1 E7.57775
G1 X103.537 Y130.585 E7.60162
G1 X103.165 Y130.175 E7.62004
G1 X102.754 Y129.694 E7.64108
G1 X102.397 Y129.25 E7.66003
G1 X101.994 Y128.716 E7.68228
G1 X101.724 Y128.333 E7.69787
G1 X101.362 Y127.782 E7.71979
G1 X101.056 Y127.285 E7.73921
G1 X100.718 Y126.695 E7.76182
G1 X100.474 Y126.235 E7.77914
G1 X100.172 Y125.619 E7.80196
G1 X99.942 Y125.108 E7.8206
G1 X99.698 Y124.519 E7.8418
G1 X99.523 Y124.058 E7.8582
G1 X99.306 Y123.427 E7.8804
G1 X99.14 Y122.89 E7.89909
G1 X98.967 Y122.263 E7.92072
G1 X98.844 Y121.757 E7.93804
G1 X98.705 Y121.096 E7.96051
G1 X98.607 Y120.541 E7.97925
G1 X98.51 Y119.857 E8.00223
G1 X98.454 Y119.348 E8.01926
G1 X98.403 Y118.719 E8.04025
G1 X98.376 Y118.18 E8.0582
G1 X98.364 Y117.49 E8.08116
G0 F6000 X98.764 Y117.496
G1 F900 X98.772 Y116.966 E8.09879
G1 X98.802 Y116.331 E8.11993
G1 X98.847 Y115.751 E8.13928
G1 X98.917 Y115.109 E8.16076
G1 X98.986 Y114.622 E8.17712
G1 X99.092 Y114.008 E8.19784
G1 X99.198 Y113.49 E8.21543
G1 X99.35 Y112.851 E8.23727
G1 X99.497 Y112.312 E8.25585
G1 X99.686 Y111.698 E8.27722
G1 X99.864 Y111.177 E8.29553
G1 X100.089 Y110.58 E8.31675
G1 X100.277 Y110.125 E8.33313
G1 X100.532 Y109.557 E8.35384
G1 X100.786 Y109.035 E8.37314
G1 X101.092 Y108.455 E8.39496
G1 X101.336 Y108.026 E8.41137
G1 X101.663 Y107.49 E8.43225
G1 X101.972 Y107.017 E8.45104
G1 X102.334 Y106.498 E8.47209
G1 X102.639 Y106.089 E8.48906
G1 X103.046 Y105.579 E8.51076
G1 X103.41 Y105.151 E8.52945
G1 X103.83 Y104.687 E8.55027
G1 X104.187 Y104.316 E8.56739
G1 X104.678 Y103.839 E8.59016
G1 X105.094 Y103.461 E8.60885
G1 X105.572 Y103.052 E8.62978
G1 X106.011 Y102.7 E8.64849
G1 X106.515 Y102.321 E8.66947
G1 X106.898 Y102.051 E8.68505
G1 X107.432 Y101.699 E8.70633
G1 X107.928 Y101.394 E8.72569
G1 X108.484 Y101.076 E8.747
G1 X108.945 Y100.831 E8.76436
G1 X109.546 Y100.537 E8.78661
G1 X110.057 Y100.307 E8.80525
G1 X110.623 Y100.072 E8.82563
G1 X111.084 Y99.897 E8.84203
G1 X111.692 Y99.688 E8.86342
G1 X112.229 Y99.522 E8.88211
G1 X112.832 Y99.356 E8.90291
G1 X113.338 Y99.233 E8.92023
G1 X113.973 Y99.099 E8.94182
G1 X114.528 Y99.001 E8.96056
G1 X115.187 Y98.907 E8.9827
G1 X115.696 Y98.851 E8.99974
G1 X116.308 Y98.802 E9.02016
G1 X116.855 Y98.775 E9.03837
G1 X117.514 Y98.764 E9.06029
G1 X118.036 Y98.772 E9.07766
G1 X118.669 Y98.802 E9.09873
G1 X119.249 Y98.847 E9.11808
G1 X119.891 Y98.917 E9.13956
G1 X120.378 Y98.986 E9.15592
G1 X120.992 Y99.092 E9.17665
G1 X121.51 Y99.198 E9.19423
G1 X122.149 Y99.35 E9.21608
G1 X122.688 Y99.497 E9.23466
G1 X123.302 Y99.686 E9.25603
G1 X123.823 Y99.864 E9.27434
G1 X124.42 Y100.089 E9.29556
G1 X124.875 Y100.277 E9.31193
G1 X125.443 Y100.532 E9.33264
G1 X125.965 Y100.786 E9.35195
G1 X126.545 Y101.092 E9.37376
G1 X126.974 Y101.336 E9.39018
G1 X127.51 Y101.663 E9.41106
G1 X127.983 Y101.972 E9.42985
G1 X128.502 Y102.334 E9.4509
G1 X128.911 Y102.639 E9.46787
G1 X129.421 Y103.046 E9.48957
G1 X129.849 Y103.41 E9.50826
G1 X130.313 Y103.83 E9.52907
G1 X130.684 Y104.187 E9.5462
G1 X131.165 Y104.682 E9.56915
G1 X131.538 Y105.093 E9.58761
G1 X131.934 Y105.556 E9.60788
G1 X132.291 Y106 E9.62683
G1 X132.674 Y106.509 E9.64801
G1 X132.943 Y106.89 E9.66352
G1 X133.302 Y107.433 E9.68517
G1 X133.608 Y107.931 E9.70462
G1 X133.924 Y108.484 E9.7258
G1 X134.169 Y108.945 E9.74316
G1 X134.463 Y109.546 E9.76542
G1 X134.693 Y110.057 E9.78405
G1 X134.925 Y110.616 E9.80418
G1 X135.1 Y111.076 E9.82055
G1 X135.312 Y111.691 E9.84219
G1 X135.478 Y112.228 E9.86088
G1 X135.645 Y112.835 E9.88182
G1 X135.768 Y113.342 E9.89918
G1 X135.9 Y113.97 E9.92052
G1 X135.998 Y114.524 E9.93923
G1 X136.093 Y115.186 E9.96148
G1 X136.149 Y115.695 E9.97851
G1 X136.197 Y116.301 E9.99873
G1 X136.224 Y116.841 E10.01671
G1 X136.236 Y117.504 E10.03876
G1 X136.228 Y118.034 E10.05639
G1 X136.198 Y118.669 E10.07754
G1 X136.153 Y119.249 E10.09689
G1 X136.083 Y119.891 E10.11837
G1 X136.014 Y120.378 E10.13473
G1 X135.908 Y120.992 E10.15545
G1 X135.802 Y121.51 E10.17303
G1 X135.65 Y122.149 E10.19488
G1 X135.503 Y122.688 E10.21346
G1 X135.314 Y123.302 E10.23483
G1 X135.136 Y123.823 E10.25314
G1 X134.916 Y124.408 E10.27393
