;FLAVOR:Marlin
;TIME:1205
;Filament used: 0.404512m
;Layer height: 0.2
;MINX:102.014
;MINY:102.014
;MINZ:0.2
;MAXX:132.983
;MAXY:132.981
;MAXZ:55
;Generated with Cura_SteamEngine main
M140 S70
M105
M190 S70
M104 S240
M105
M109 S240
M82 ;absolute extrusion mode
; Ender 3 Custom Start G-code
G92 E0 ; Reset Extruder
G28 ; Home all axes
G1 Z2.0 F3000 ; Move Z Axis up little to prevent scratching of Heat Bed
G1 X0.1 Y20 Z0.3 F5000.0 ; Move to start position
G1 X0.1 Y200.0 Z0.3 F1500.0 E15 ; Draw the first line
G1 X0.4 Y200.0 Z0.3 F5000.0 ; Move to side a little
G1 X0.4 Y20 Z0.3 F1500.0 E30 ; Draw the second line
G92 E0 ; Reset Extruder
G1 Z2.0 F3000 ; Move Z Axis up little to prevent scratching of Heat Bed
G1 X5 Y20 Z0.3 F5000.0 ; Move over to prevent blob squish
G92 E0
G92 E0
G1 F2700 E-5
;LAYER_COUNT:275
;LAYER:0
M107
G0 F6000 X106.532 Y106.571 Z0.2
G0 X102.131 Y115.625
;TYPE:SKIRT
G1 F2700 E0
G1 F900 X102.215 Y115.035 E0.01982
G1 X102.442 Y113.881 E0.05894
G1 X102.513 Y113.601 E0.06855
G1 X102.758 Y112.773 E0.09727
G1 X102.936 Y112.248 E0.1157
G1 X103.44 Y111.014 E0.16004
G1 X103.615 Y110.65 E0.17347
G1 X103.984 Y109.948 E0.19985
G1 X104.208 Y109.557 E0.21484
G1 X104.774 Y108.661 E0.25009
G1 X105.382 Y107.858 E0.28359
G1 X105.645 Y107.538 E0.29736
G1 X106.265 Y106.845 E0.32829
G1 X106.532 Y106.571 E0.34101
G1 X106.993 Y106.125 E0.36235
G1 X107.223 Y105.915 E0.37271
G1 X108.284 Y105.06 E0.41803
G1 X108.777 Y104.711 E0.43812
G1 X109.662 Y104.146 E0.47304
G1 X109.976 Y103.966 E0.48508
G1 X110.906 Y103.49 E0.51983
G1 X111.27 Y103.325 E0.53312
G1 X112.078 Y102.994 E0.56216
G1 X112.769 Y102.755 E0.58648
G1 X113.057 Y102.666 E0.59651
G1 X113.714 Y102.485 E0.61917
G1 X114.073 Y102.398 E0.63146
G1 X115.359 Y102.167 E0.67492
G1 X115.995 Y102.091 E0.69622
G1 X116.93 Y102.019 E0.72741
G1 X117.468 Y102.014 E0.7453
G1 X117.993 Y102.022 E0.76277
G1 X119.367 Y102.13 E0.80861
G1 X119.946 Y102.212 E0.82806
G1 X121.089 Y102.436 E0.8668
G1 X121.383 Y102.51 E0.87688
G1 X122.236 Y102.762 E0.90646
G1 X122.76 Y102.94 E0.92487
G1 X123.992 Y103.443 E0.96913
G1 X124.393 Y103.636 E0.98393
G1 X125.229 Y104.084 E1.01548
G1 X125.57 Y104.286 E1.02866
G1 X126.527 Y104.923 E1.0669
G1 X126.952 Y105.239 E1.08451
G1 X127.913 Y106.042 E1.12616
G1 X128.25 Y106.358 E1.14153
G1 X128.845 Y106.96 E1.16968
G1 X129.09 Y107.228 E1.18176
G1 X129.948 Y108.292 E1.22722
G1 X130.283 Y108.765 E1.2465
G1 X130.902 Y109.746 E1.28508
G1 X131.097 Y110.094 E1.29835
G1 X131.522 Y110.935 E1.32969
G1 X131.732 Y111.399 E1.34663
G1 X132.082 Y112.27 E1.37785
G1 X132.319 Y113.009 E1.40366
G1 X132.495 Y113.655 E1.42593
G1 X132.626 Y114.2 E1.44457
G1 X132.836 Y115.325 E1.48264
G1 X132.873 Y115.604 E1.492
G1 X132.947 Y116.369 E1.51756
G1 X132.963 Y116.627 E1.52616
G1 X132.983 Y117.474 E1.55434
G1 X132.975 Y118.005 E1.572
G1 X132.912 Y119.025 E1.60599
G1 X132.876 Y119.357 E1.6171
G1 X132.745 Y120.258 E1.64738
G1 X132.514 Y121.289 E1.68252
G1 X132.396 Y121.725 E1.69754
G1 X132.193 Y122.392 E1.72073
G1 X132.108 Y122.642 E1.72952
G1 X131.844 Y123.339 E1.75431
G1 X131.494 Y124.127 E1.78298
G1 X131.316 Y124.491 E1.79646
G1 X130.864 Y125.323 E1.82795
G1 X130.682 Y125.626 E1.83971
G1 X130.077 Y126.529 E1.87586
G1 X129.757 Y126.959 E1.89369
G1 X128.946 Y127.927 E1.93569
G1 X128.632 Y128.261 E1.95094
G1 X128.04 Y128.845 E1.9786
G1 X127.772 Y129.09 E1.99067
G1 X126.703 Y129.951 E2.03633
G1 X126.221 Y130.292 E2.05596
G1 X125.215 Y130.925 E2.0955
G1 X124.868 Y131.118 E2.1087
G1 X124.077 Y131.517 E2.13817
G1 X123.743 Y131.669 E2.15037
G1 X123.014 Y131.975 E2.17667
G1 X122.231 Y132.245 E2.20422
G1 X121.943 Y132.334 E2.21424
G1 X121.286 Y132.515 E2.23691
G1 X120.927 Y132.602 E2.2492
G1 X119.647 Y132.833 E2.29246
G1 X119.014 Y132.909 E2.31366
G1 X118.079 Y132.981 E2.34485
G1 X117.16 Y132.981 E2.37542
G1 X116.345 Y132.945 E2.40255
G1 X115.503 Y132.853 E2.43072
G1 X114.996 Y132.78 E2.44776
G1 X113.658 Y132.501 E2.49322
G1 X113.355 Y132.418 E2.50367
G1 X112.706 Y132.219 E2.52625
G1 X112.217 Y132.052 E2.54343
G1 X110.918 Y131.513 E2.59021
G1 X110.377 Y131.247 E2.61026
G1 X109.554 Y130.798 E2.64144
G1 X109.124 Y130.525 E2.65838
G1 X108.685 Y130.232 E2.67594
G1 X107.843 Y129.61 E2.71075
G1 X107.643 Y129.447 E2.71934
G1 X106.93 Y128.813 E2.75107
G1 X106.555 Y128.449 E2.76845
G1 X105.869 Y127.72 E2.80175
G1 X105.627 Y127.438 E2.81411
G1 X104.988 Y126.618 E2.84868
G1 X104.664 Y126.159 E2.86737
G1 X103.938 Y124.978 E2.91348
G1 X103.778 Y124.677 E2.92482
G1 X103.462 Y124.032 E2.9487
G1 X103.312 Y123.699 E2.96085
G1 X102.999 Y122.933 E2.98837
G1 X102.75 Y122.216 E3.01362
G1 X102.662 Y121.93 E3.02357
G1 X102.481 Y121.265 E3.04649
G1 X102.394 Y120.903 E3.05888
G1 X102.167 Y119.644 E3.10143
G1 X102.091 Y119.011 E3.12263
G1 X102.019 Y118.076 E3.15382
G1 X102.014 Y117.532 E3.17192
G1 X102.022 Y117.007 E3.18938
G1 X102.131 Y115.625 E3.23549
G0 F6000 X102.414 Y117.538
G1 F900 X102.422 Y117.013 E3.25295
G1 X102.527 Y115.681 E3.29739
G1 X102.611 Y115.091 E3.31721
G1 X102.83 Y113.98 E3.35488
G1 X102.901 Y113.7 E3.36448
G1 X103.137 Y112.901 E3.39219
G1 X103.315 Y112.376 E3.41063
G1 X103.801 Y111.187 E3.45335
G1 X103.976 Y110.823 E3.46679
G1 X104.331 Y110.147 E3.49218
G1 X104.555 Y109.756 E3.50717
G1 X105.103 Y108.889 E3.54128
G1 X105.691 Y108.112 E3.57369
G1 X105.954 Y107.792 E3.58747
G1 X106.551 Y107.124 E3.61727
G1 X106.818 Y106.85 E3.62999
G1 X107.263 Y106.42 E3.65057
G1 X107.493 Y106.21 E3.66093
G1 X108.515 Y105.386 E3.7046
G1 X109.008 Y105.037 E3.72469
G1 X109.861 Y104.493 E3.75834
G1 X110.175 Y104.313 E3.77037
G1 X111.071 Y103.855 E3.80384
G1 X111.435 Y103.69 E3.81713
G1 X112.221 Y103.368 E3.84539
G1 X112.887 Y103.138 E3.86882
G1 X113.175 Y103.049 E3.87885
G1 X113.808 Y102.874 E3.90069
G1 X114.167 Y102.787 E3.91298
G1 X115.406 Y102.564 E3.95485
G1 X116.042 Y102.488 E3.97615
G1 X116.96 Y102.418 E4.00677
G1 X117.462 Y102.414 E4.02347
G1 X117.987 Y102.422 E4.04093
G1 X119.311 Y102.526 E4.08511
G1 X119.89 Y102.608 E4.10456
G1 X120.991 Y102.824 E4.14187
G1 X121.285 Y102.898 E4.15196
G1 X122.107 Y103.14 E4.18046
G1 X122.631 Y103.318 E4.19886
G1 X123.819 Y103.804 E4.24155
G1 X124.22 Y103.997 E4.25636
G1 X125.025 Y104.428 E4.28673
G1 X125.366 Y104.63 E4.29991
G1 X126.289 Y105.244 E4.33678
G1 X126.714 Y105.56 E4.35439
G1 X127.64 Y106.334 E4.39454
G1 X127.977 Y106.65 E4.4099
G1 X128.55 Y107.23 E4.43702
G1 X128.795 Y107.498 E4.4491
G1 X129.621 Y108.524 E4.4929
G1 X129.956 Y108.997 E4.51218
G1 X130.553 Y109.941 E4.54933
G1 X130.748 Y110.289 E4.5626
G1 X131.158 Y111.1 E4.59283
G1 X131.368 Y111.564 E4.60976
G1 X131.848 Y112.835 E4.65495
G1 X131.937 Y113.126 E4.66507
G1 X132.106 Y113.749 E4.68654
G1 X132.237 Y114.294 E4.70519
G1 X132.439 Y115.377 E4.74183
G1 X132.476 Y115.656 E4.75119
G1 X132.548 Y116.394 E4.77585
G1 X132.564 Y116.652 E4.78445
G1 X132.583 Y117.468 E4.8116
G1 X132.575 Y117.999 E4.82926
G1 X132.514 Y118.982 E4.86202
G1 X132.478 Y119.314 E4.87313
G1 X132.353 Y120.186 E4.90242
G1 X132.128 Y121.184 E4.93645
G1 X132.01 Y121.62 E4.95147
G1 X131.814 Y122.263 E4.97383
G1 X131.729 Y122.513 E4.98261
G1 X131.475 Y123.185 E5.00651
G1 X131.134 Y123.952 E5.03443
G1 X130.956 Y124.316 E5.0479
G1 X130.521 Y125.117 E5.07822
G1 X130.339 Y125.42 E5.08998
G1 X129.756 Y126.29 E5.12481
G1 X129.436 Y126.72 E5.14264
G1 X128.655 Y127.653 E5.18311
G1 X128.341 Y127.987 E5.19835
G1 X127.77 Y128.55 E5.22502
G1 X127.502 Y128.795 E5.2371
G1 X126.472 Y129.624 E5.28108
G1 X125.99 Y129.965 E5.30071
G1 X125.02 Y130.576 E5.33884
G1 X124.673 Y130.769 E5.35205
G1 X123.912 Y131.153 E5.3804
G1 X123.578 Y131.305 E5.3926
G1 X122.868 Y131.602 E5.4182
G1 X122.113 Y131.862 E5.44476
G1 X121.825 Y131.951 E5.45479
G1 X121.192 Y132.126 E5.47663
G1 X120.833 Y132.213 E5.48892
G1 X119.6 Y132.435 E5.53059
G1 X118.967 Y132.511 E5.55179
G1 X118.049 Y132.581 E5.58241
G1 X117.164 Y132.581 E5.61185
G1 X116.375 Y132.546 E5.63812
G1 X115.56 Y132.457 E5.66538
G1 X115.053 Y132.384 E5.68242
G1 X113.764 Y132.115 E5.72622
G1 X113.461 Y132.032 E5.73667
G1 X112.835 Y131.84 E5.75844
G1 X112.346 Y131.673 E5.77563
G1 X111.095 Y131.154 E5.82068
G1 X110.554 Y130.888 E5.84073
G1 X109.746 Y130.447 E5.87134
G1 X109.347 Y130.193 E5.88708
G1 X108.908 Y129.9 E5.90463
G1 X108.095 Y129.3 E5.93824
G1 X107.895 Y129.137 E5.94682
G1 X107.209 Y128.526 E5.97737
G1 X106.834 Y128.162 E5.99476
G1 X106.173 Y127.459 E6.02685
G1 X105.931 Y127.177 E6.03921
G1 X105.315 Y126.387 E6.07253
G1 X104.991 Y125.928 E6.09122
G1 X104.291 Y124.79 E6.13565
G1 X104.131 Y124.489 E6.14699
G1 X103.826 Y123.867 E6.17003
G1 X103.676 Y123.534 E6.18218
G1 X103.372 Y122.789 E6.20894
G1 X103.133 Y122.098 E6.23326
G1 X103.045 Y121.812 E6.24321
G1 X102.869 Y121.172 E6.26529
G1 X102.782 Y120.81 E6.27767
G1 X102.565 Y119.597 E6.31866
G1 X102.489 Y118.964 E6.33986
G1 X102.419 Y118.046 E6.37048
G1 X102.414 Y117.538 E6.38738
G0 F6000 X102.814 Y117.545
G1 F900 X102.822 Y117.02 E6.40484
G1 X102.923 Y115.737 E6.44765
G1 X103.007 Y115.147 E6.46747
G1 X103.218 Y114.078 E6.50371
G1 X103.289 Y113.798 E6.51332
G1 X103.516 Y113.03 E6.53996
G1 X103.694 Y112.505 E6.55839
G1 X104.161 Y111.36 E6.59952
G1 X104.336 Y110.996 E6.61295
G1 X104.678 Y110.346 E6.63738
G1 X104.902 Y109.955 E6.65237
G1 X105.431 Y109.118 E6.6853
G1 X106 Y108.366 E6.71667
G1 X106.263 Y108.046 E6.73045
G1 X106.838 Y107.403 E6.75914
G1 X107.105 Y107.129 E6.77186
G1 X107.532 Y106.715 E6.79164
G1 X107.762 Y106.505 E6.802
G1 X108.747 Y105.713 E6.84404
G1 X109.24 Y105.364 E6.86413
G1 X110.06 Y104.84 E6.89649
G1 X110.374 Y104.66 E6.90853
G1 X111.236 Y104.219 E6.94074
G1 X111.6 Y104.054 E6.95403
G1 X112.365 Y103.741 E6.98152
G1 X113.005 Y103.52 E7.00404
G1 X113.293 Y103.431 E7.01407
G1 X113.903 Y103.263 E7.03511
G1 X114.262 Y103.176 E7.0474
G1 X115.454 Y102.961 E7.08768
G1 X116.09 Y102.885 E7.10899
G1 X116.99 Y102.818 E7.139
G1 X117.455 Y102.814 E7.15447
G1 X117.98 Y102.822 E7.17193
G1 X119.255 Y102.922 E7.21447
G1 X119.834 Y103.004 E7.23392
G1 X120.894 Y103.212 E7.26985
G1 X121.188 Y103.286 E7.27993
G1 X121.979 Y103.519 E7.30736
G1 X122.503 Y103.697 E7.32576
G1 X123.646 Y104.164 E7.36683
G1 X124.047 Y104.357 E7.38163
G1 X124.822 Y104.772 E7.41087
G1 X125.163 Y104.974 E7.42406
G1 X126.05 Y105.565 E7.45951
G1 X126.475 Y105.881 E7.47712
G1 X127.366 Y106.625 E7.51573
G1 X127.703 Y106.941 E7.53109
G1 X128.254 Y107.5 E7.5572
G1 X128.499 Y107.768 E7.56928
G1 X129.295 Y108.755 E7.61145
G1 X129.63 Y109.228 E7.63073
G1 X130.204 Y110.137 E7.66649
G1 X130.399 Y110.485 E7.67975
G1 X130.794 Y111.265 E7.70883
G1 X131.004 Y111.729 E7.72577
G1 X131.465 Y112.952 E7.76924
G1 X131.554 Y113.243 E7.77936
G1 X131.718 Y113.842 E7.80002
G1 X131.849 Y114.387 E7.81866
G1 X132.042 Y115.43 E7.85394
G1 X132.079 Y115.709 E7.8633
G1 X132.148 Y116.419 E7.88703
G1 X132.164 Y116.677 E7.89563
G1 X132.183 Y117.462 E7.92174
G1 X132.175 Y117.993 E7.93941
G1 X132.117 Y118.939 E7.97093
G1 X132.081 Y119.271 E7.98204
G1 X131.958 Y120.117 E8.01047
G1 X131.742 Y121.08 E8.0433
G1 X131.624 Y121.516 E8.05832
G1 X131.435 Y122.134 E8.07981
G1 X131.35 Y122.384 E8.0886
G1 X131.106 Y123.031 E8.1116
G1 X130.775 Y123.776 E8.13871
G1 X130.597 Y124.14 E8.15219
G1 X130.178 Y124.911 E8.18137
G1 X129.996 Y125.214 E8.19313
G1 X129.435 Y126.052 E8.22667
G1 X129.115 Y126.482 E8.2445
G1 X128.364 Y127.379 E8.28341
G1 X128.05 Y127.713 E8.29865
G1 X127.5 Y128.254 E8.32431
G1 X127.232 Y128.499 E8.33639
G1 X126.241 Y129.298 E8.37873
G1 X125.759 Y129.639 E8.39837
G1 X124.826 Y130.226 E8.43503
G1 X124.479 Y130.419 E8.44824
G1 X123.746 Y130.789 E8.47555
G1 X123.412 Y130.941 E8.48775
G1 X122.626 Y131.262 E8.51599
G1 X121.995 Y131.48 E8.5382
G1 X121.707 Y131.569 E8.54822
G1 X121.097 Y131.737 E8.56927
G1 X120.738 Y131.824 E8.58155
G1 X119.552 Y132.038 E8.62163
G1 X118.919 Y132.114 E8.64284
G1 X117.578 Y132.186 E8.68751
G1 X117.169 Y132.181 E8.70111
G1 X116.406 Y132.147 E8.72651
G1 X115.617 Y132.061 E8.75291
G1 X115.11 Y131.988 E8.76995
G1 X113.869 Y131.73 E8.81211
G1 X113.566 Y131.647 E8.82255
G1 X112.965 Y131.462 E8.84347
G1 X112.476 Y131.295 E8.86066
G1 X111.271 Y130.795 E8.90405
G1 X110.73 Y130.529 E8.9241
G1 X109.569 Y129.86 E8.96867
G1 X109.13 Y129.567 E8.98622
G1 X108.348 Y128.99 E9.01854
G1 X108.148 Y128.827 E9.02713
G1 X107.488 Y128.239 E9.05653
G1 X107.113 Y127.875 E9.07391
G1 X106.476 Y127.199 E9.1048
G1 X106.234 Y126.917 E9.11716
G1 X105.642 Y126.156 E9.14923
G1 X105.318 Y125.697 E9.16791
G1 X104.644 Y124.603 E9.21065
G1 X104.484 Y124.302 E9.22199
G1 X104.191 Y123.703 E9.24417
G1 X104.041 Y123.37 E9.25632
G1 X103.745 Y122.646 E9.28233
G1 X103.515 Y121.981 E9.30573
G1 X103.427 Y121.695 E9.31569
G1 X103.258 Y121.079 E9.33693
G1 X103.171 Y120.717 E9.34932
G1 X102.962 Y119.549 E9.38878
G1 X102.886 Y118.916 E9.40999
G1 X102.818 Y118.015 E9.44004
G1 X102.814 Y117.545 E9.45567
G1 F2700 E4.45567
;MESH:rotor-shaft.stl
G0 F6000 X112.686 Y119.367
G0 X113.704 Y118.997
G0 X117.013 Y120.568
;TYPE:WALL-INNER
G1 F2700 E9.45567
G1 F900 X117.495 Y120.599 E9.47174
G1 X117.978 Y120.569 E9.48783
G1 X118.456 Y120.448 E9.50423
G1 X118.818 Y120.304 E9.51719
G1 X119.252 Y120.065 E9.53367
G1 X119.621 Y119.759 E9.54961
G1 X119.956 Y119.403 E9.56587
G1 X120.214 Y118.994 E9.58195
G1 X120.423 Y118.555 E9.59813
G1 X120.543 Y118.083 E9.61432
G1 X120.591 Y117.702 E9.6271
G1 X120.595 Y117.396 E9.63727
G1 X120.568 Y117.018 E9.64988
G1 X120.424 Y116.453 E9.66927
G1 X120.219 Y116.015 E9.68536
G1 X119.957 Y115.6 E9.70168
G1 X119.617 Y115.24 E9.71815
G1 X119.242 Y114.929 E9.73435
G1 X118.818 Y114.695 E9.75046
G1 X118.463 Y114.554 E9.76316
G1 X117.984 Y114.432 E9.77961
G1 X117.501 Y114.401 E9.7957
G1 X117.022 Y114.431 E9.81167
G1 X116.544 Y114.552 E9.82807
G1 X116.182 Y114.696 E9.84102
G1 X115.842 Y114.882 E9.85391
G1 X115.527 Y115.11 E9.86685
G1 X115.24 Y115.381 E9.87998
G1 X114.997 Y115.672 E9.89258
G1 X114.731 Y116.095 E9.9092
G1 X114.551 Y116.544 E9.92529
G1 X114.432 Y117.019 E9.94158
G1 X114.401 Y117.501 E9.95764
G1 X114.425 Y117.885 E9.97044
G1 X114.499 Y118.27 E9.98348
G1 X114.652 Y118.741 E9.99995
G1 X114.932 Y119.246 E10.01916
G1 X115.237 Y119.615 E10.03508
G1 X115.523 Y119.883 E10.04812
G1 X115.834 Y120.113 E10.06098
G1 X116.176 Y120.302 E10.07398
G1 X116.536 Y120.445 E10.08686
G1 X117.013 Y120.568 E10.10325
G0 F6000 X117.38 Y121.006
G1 F900 X118.041 Y120.966 E10.12527
G1 X118.58 Y120.829 E10.14377
G1 X118.988 Y120.666 E10.15838
G1 X119.475 Y120.4 E10.17684
G1 X119.985 Y119.975 E10.19892
G1 X120.4 Y119.474 E10.22056
G1 X120.667 Y118.987 E10.23903
G1 X120.863 Y118.496 E10.25661
G1 X120.99 Y117.851 E10.27848
G1 X120.995 Y117.383 E10.29404
G1 X120.973 Y117.071 E10.30445
G1 X120.889 Y116.634 E10.31925
G1 X120.753 Y116.213 E10.33396
G1 X120.57 Y115.822 E10.34832
G1 X120.274 Y115.354 E10.36674
G1 X119.891 Y114.948 E10.3853
G1 X119.47 Y114.598 E10.40351
G1 X118.989 Y114.333 E10.42178
G1 X118.585 Y114.173 E10.43623
G1 X118.041 Y114.034 E10.4549
G1 X117.501 Y114.001 E10.4729
G1 X116.959 Y114.034 E10.49096
G1 X116.42 Y114.171 E10.50946
G1 X116.012 Y114.334 E10.52407
G1 X115.524 Y114.601 E10.54257
G1 X115.111 Y114.944 E10.56043
G1 X114.806 Y115.267 E10.5752
G1 X114.55 Y115.619 E10.58968
G1 X114.333 Y116.013 E10.60464
G1 X114.17 Y116.421 E10.61925
G1 X114.034 Y116.962 E10.63781
G1 X114.001 Y117.501 E10.65577
G1 X114.034 Y118.039 E10.67369
G1 X114.201 Y118.693 E10.69614
G1 X114.432 Y119.182 E10.71413
G1 X114.669 Y119.555 E10.72883
G1 X114.945 Y119.888 E10.74322
G1 X115.267 Y120.191 E10.75792
G1 X115.619 Y120.451 E10.77248
G1 X116.004 Y120.663 E10.7871
G1 X116.413 Y120.826 E10.80174
G1 X116.841 Y120.936 E10.81644
G1 X117.38 Y121.006 E10.83451
G0 F6000 X117.495 Y121.399
G1 F900 X118.103 Y121.362 E10.85477
G1 X118.704 Y121.21 E10.87539
G1 X119.159 Y121.028 E10.89169
G1 X119.702 Y120.731 E10.91228
G1 X120.269 Y120.259 E10.93682
G1 X120.731 Y119.701 E10.96091
G1 X121.029 Y119.158 E10.98151
G1 X121.25 Y118.604 E11.00135
G1 X121.388 Y117.894 E11.02541
G1 X121.395 Y117.371 E11.0428
G1 X121.363 Y116.923 E11.05774
G1 X121.254 Y116.432 E11.07447
G1 X121.126 Y116.068 E11.0873
G1 X120.921 Y115.629 E11.10342
G1 X120.723 Y115.298 E11.11625
G1 X120.436 Y114.928 E11.13182
