; generated by PrusaSlicer 2.4.1+win64 on 2022-08-29 at 11:45:37 UTC

; 

; external perimeters extrusion width = 0.45mm
; perimeters extrusion width = 0.45mm
; infill extrusion width = 0.45mm
; solid infill extrusion width = 0.45mm
; top infill extrusion width = 0.40mm
; first layer extrusion width = 0.42mm

M107
;TYPE:Custom
G90 ; use absolute coordinates
M83 ; extruder relative mode
M140 S70 ; set final bed temp
M104 S150 ; set temporary nozzle temp to prevent oozing during homing
G4 S10 ; allow partial nozzle warmup
G28 ; home all axis
G1 Z50 F240
G1 X2 Y10 F3000
M104 S240 ; set final nozzle temp
M190 S70 ; wait for bed temp to stabilize
M109 S240 ; wait for nozzle temp to stabilize
G1 Z0.28 F240
G92 E0
G1 Y140 E10 F1500 ; prime the nozzle
G1 X2.3 F5000
G92 E0
G1 Y10 E10 F1200 ; prime the nozzle
G92 E0
G21 ; set units to millimeters
G90 ; use absolute coordinates
M83 ; use relative distances for extrusion
; Filament gcode
M107
;LAYER_CHANGE
;Z:0.2
;HEIGHT:0.2
;BEFORE_LAYER_CHANGE
G92 E0
;0.2


G1 E-5 F3600
G1 Z.2 F9000
;AFTER_LAYER_CHANGE
;0.2
G1 X36.517 Y81.851
G1 E5 F2400
M204 S500
;TYPE:Skirt/Brim
;WIDTH:0.42
G1 F1200
G1 X37.196 Y81.567 E.02308
G1 X39.864 Y80.838 E.08673
G1 X41.615 Y80.673 E.05513
G1 X178.386 Y80.673 E4.28838
G1 X180.15 Y80.841 E.05553
G1 X182.833 Y81.574 E.08724
G1 X183.548 Y81.878 E.02433
G1 X184.659 Y82.51 E.04008
G1 X185.344 Y83.024 E.02685
G1 X186.585 Y84.231 E.05428
G1 X187.32 Y85.287 E.04035
G1 X188.105 Y87.062 E.06085
G1 X188.391 Y88.316 E.04035
G1 X188.443 Y131.47 E1.35305
G1 X188.161 Y132.82 E.04325
G1 X187.327 Y134.732 E.06541
G1 X186.529 Y135.857 E.04325
G1 X185.212 Y137.08 E.05634
G1 X184.55 Y137.559 E.02563
G1 X183.483 Y138.149 E.03822
G1 X182.804 Y138.433 E.02308
G1 X180.136 Y139.162 E.08673
G1 X178.385 Y139.327 E.05513
G1 X41.422 Y139.321 E4.29439
G1 X39.85 Y139.159 E.04954
G1 X37.167 Y138.426 E.08724
G1 X36.452 Y138.122 E.02433
G1 X35.341 Y137.49 E.04008
G1 X34.656 Y136.976 E.02685
G1 X33.415 Y135.769 E.05428
G1 X32.68 Y134.713 E.04035
G1 X31.895 Y132.938 E.06085
G1 X31.609 Y131.684 E.04035
G1 X31.557 Y130.017 E.05229
G1 X31.557 Y88.53 E1.30078
G1 X31.839 Y87.18 E.04325
G1 X32.673 Y85.268 E.06541
G1 X33.471 Y84.143 E.04325
G1 X34.788 Y82.92 E.05634
G1 X35.45 Y82.441 E.02563
G1 X36.464 Y81.88 E.03634
G1 E-3.5 F3600
;WIPE_START
G1 F7200
G1 X37.196 Y81.567 E-.37801
G1 X39.322 Y80.986 E-1.04699
;WIPE_END
G1 E-.075 F3600
G1 X38.189 Y85.181 F9000
G1 E5 F2400
G1 F1200
G1 X38.541 Y84.997 E.01244
G1 X39.356 Y84.778 E.02646
G1 X40.23 Y84.506 E.02869
G1 X41.624 Y84.337 E.04403
G1 X178.402 Y84.338 E4.28858
G1 X179.945 Y84.545 E.04883
G1 X181.869 Y85.161 E.06332
G1 X182.836 Y85.736 E.03529
G1 X183.717 Y86.578 E.03819
G1 X184.283 Y87.454 E.0327
G1 X184.779 Y89.176 E.05619
G1 X184.779 Y130.759 E1.30381
G1 X184.448 Y132.172 E.0455
G1 X183.755 Y133.375 E.04355
G1 X182.74 Y134.333 E.04375
G1 X181.459 Y135.003 E.04532
G1 X180.644 Y135.222 E.02646
G1 X179.77 Y135.494 E.0287
G1 X178.376 Y135.663 E.04403
G1 X41.62 Y135.663 E4.28791
G1 X40.039 Y135.45 E.05003
G1 X37.782 Y134.672 E.07485
G1 X37.049 Y134.175 E.02776
G1 X36.385 Y133.558 E.02843
G1 X35.374 Y131.666 E.06724
G1 X35.221 Y130.695 E.03085
G1 X35.221 Y89.241 E1.29975
G1 X35.552 Y87.828 E.0455
G1 X36.245 Y86.625 E.04355
G1 X37.26 Y85.667 E.04375
G1 X38.136 Y85.209 E.031
G1 X38.31 Y85.54 F9000
G1 F1200
G1 X38.659 Y85.356 E.01238
G1 X39.461 Y85.14 E.02603
G1 X40.325 Y84.871 E.02838
G1 X41.635 Y84.714 E.04135
G1 X178.389 Y84.715 E4.28784
G1 X179.846 Y84.91 E.04609
G1 X181.733 Y85.513 E.06209
G1 X182.623 Y86.048 E.03257
G1 X183.438 Y86.833 E.0355
G1 X183.951 Y87.633 E.02978
G1 X184.402 Y89.202 E.05118
G1 X184.402 Y130.737 E1.30232
G1 X184.107 Y132.01 E.04096
G1 X183.474 Y133.122 E.04012
G1 X182.541 Y134.012 E.04043
G1 X181.341 Y134.644 E.04253
G1 X180.539 Y134.86 E.02603
G1 X179.675 Y135.129 E.02838
G1 X178.365 Y135.286 E.04135
G1 X41.632 Y135.286 E4.28717
G1 X40.143 Y135.087 E.04712
G1 X37.972 Y134.346 E.07191
G1 X37.273 Y133.871 E.0265
G1 X36.665 Y133.304 E.02609
G1 X35.742 Y131.576 E.06143
G1 X35.598 Y130.679 E.02846
G1 X35.598 Y89.263 E1.2986
G1 X35.893 Y87.99 E.04096
G1 X36.526 Y86.878 E.04012
G1 X37.459 Y85.988 E.04043
G1 X38.257 Y85.568 E.02827
G1 X38.43 Y85.897 F9000
G1 F1200
G1 X38.777 Y85.715 E.01231
G1 X39.567 Y85.502 E.02564
G1 X40.388 Y85.243 E.027
G1 X41.646 Y85.091 E.03973
G1 X178.377 Y85.092 E4.28709
G1 X179.747 Y85.274 E.04335
G1 X181.596 Y85.865 E.06085
G1 X182.409 Y86.359 E.02981
G1 X183.159 Y87.088 E.03281
G1 X183.617 Y87.812 E.02687
G1 X184.025 Y89.228 E.04622
G1 X184.025 Y130.715 E1.30079
G1 X183.746 Y131.895 E.03803
G1 X183.162 Y132.909 E.03669
G1 X182.302 Y133.72 E.03706
G1 X181.223 Y134.285 E.0382
G1 X180.433 Y134.498 E.02564
G1 X179.612 Y134.757 E.027
G1 X178.354 Y134.909 E.03973
G1 X41.644 Y134.909 E4.28642
G1 X40.246 Y134.724 E.04424
G1 X38.162 Y134.019 E.06898
G1 X37.519 Y133.585 E.02431
G1 X36.945 Y133.05 E.02461
G1 X36.09 Y131.429 E.05746
G1 X35.975 Y130.666 E.02419
G1 X35.975 Y89.285 E1.29748
G1 X36.254 Y88.105 E.03803
G1 X36.838 Y87.091 E.03669
G1 X37.698 Y86.28 E.03706
G1 X38.377 Y85.925 E.02401
G1 X38.551 Y86.256 F9000
G1 F1200
G1 X38.896 Y86.073 E.01222
G1 X39.674 Y85.864 E.02525
G1 X40.452 Y85.615 E.02562
G1 X41.658 Y85.468 E.03809
G1 X178.365 Y85.469 E4.28635
G1 X179.649 Y85.638 E.04061
G1 X181.459 Y86.217 E.05959
G1 X182.192 Y86.668 E.027
G1 X182.879 Y87.341 E.03012
G1 X183.284 Y87.989 E.02396
G1 X183.648 Y89.255 E.04131
G1 X183.648 Y130.694 E1.29928
G1 X183.405 Y131.734 E.03349
G1 X182.881 Y132.656 E.03326
G1 X182.102 Y133.399 E.03375
G1 X181.104 Y133.927 E.03539
G1 X180.326 Y134.136 E.02525
G1 X179.548 Y134.385 E.02562
G1 X178.342 Y134.532 E.03808
G1 X41.657 Y134.532 E4.28568
G1 X40.348 Y134.361 E.04138
G1 X38.351 Y133.692 E.06602
G1 X37.743 Y133.281 E.02302
G1 X37.226 Y132.796 E.02221
G1 X36.458 Y131.34 E.05162
G1 X36.352 Y130.651 E.02185
G1 X36.352 Y89.306 E1.29635
G1 X36.595 Y88.266 E.03349
G1 X37.119 Y87.344 E.03326
G1 X37.898 Y86.601 E.03375
G1 X38.498 Y86.284 E.02129
G1 X38.672 Y86.612 F9000
G1 F1200
G1 X39.014 Y86.432 E.01214
G1 X39.781 Y86.226 E.02491
G1 X40.517 Y85.987 E.02424
G1 X41.67 Y85.845 E.03642
G1 X178.353 Y85.846 E4.2856
G1 X179.55 Y86.003 E.03786
G1 X181.321 Y86.569 E.0583
G1 X181.974 Y86.977 E.02414
G1 X182.597 Y87.592 E.02745
G1 X182.949 Y88.164 E.02106
G1 X183.271 Y89.281 E.03646
G1 X183.271 Y130.671 E1.29774
G1 X183.045 Y131.618 E.03054
G1 X182.569 Y132.443 E.02984
G1 X181.863 Y133.106 E.03038
G1 X180.986 Y133.568 E.03107
G1 X180.219 Y133.774 E.02491
G1 X179.483 Y134.013 E.02424
G1 X178.33 Y134.155 E.03642
G1 X41.669 Y134.155 E4.28494
G1 X40.449 Y133.997 E.03856
G1 X38.54 Y133.364 E.06308
G1 X37.989 Y132.995 E.02077
G1 X37.507 Y132.543 E.02073
G1 X36.826 Y131.251 E.04581
G1 X36.729 Y130.636 E.01949
G1 X36.729 Y89.329 E1.29517
G1 X36.955 Y88.382 E.03054
G1 X37.431 Y87.557 E.02984
G1 X38.137 Y86.894 E.03038
G1 X38.618 Y86.64 E.01705
G1 X38.794 Y86.971 F9000
G1 F1200
G1 X39.133 Y86.791 E.01203
G1 X39.889 Y86.587 E.02453
G1 X40.616 Y86.352 E.02396
G1 X41.681 Y86.222 E.03365
G1 X178.341 Y86.223 E4.28487
G1 X179.451 Y86.367 E.03512
G1 X181.182 Y86.921 E.05699
G1 X181.754 Y87.283 E.02122
G1 X182.313 Y87.842 E.02479
G1 X182.613 Y88.338 E.01816
G1 X182.894 Y89.308 E.03168
G1 X182.894 Y130.649 E1.29623
G1 X182.703 Y131.457 E.02602
G1 X182.288 Y132.19 E.02641
G1 X181.662 Y132.786 E.0271
G1 X180.867 Y133.209 E.02825
G1 X180.111 Y133.413 E.02453
G1 X179.384 Y133.648 E.02396
G1 X178.319 Y133.778 E.03365
G1 X41.68 Y133.778 E4.28421
G1 X40.549 Y133.633 E.03576
G1 X38.726 Y133.035 E.06014
G1 X38.236 Y132.709 E.01848
G1 X37.789 Y132.29 E.0192
G1 X37.176 Y131.107 E.04179
G1 X37.106 Y130.624 E.01529
G1 X37.106 Y89.351 E1.2941
G1 X37.297 Y88.543 E.02602
G1 X37.712 Y87.81 E.02641
G1 X38.338 Y87.214 E.0271
G1 X38.742 Y86.999 E.01433
G1 X38.915 Y87.327 F9000
G1 F1200
G1 X39.251 Y87.149 E.01192
G1 X39.997 Y86.949 E.02421
G1 X40.68 Y86.724 E.02256
G1 X41.692 Y86.599 E.03197
G1 X178.329 Y86.6 E4.28413
G1 X179.353 Y86.731 E.03238
G1 X181.043 Y87.272 E.05563
G1 X181.531 Y87.588 E.01823
G1 X182.028 Y88.09 E.02216
G1 X182.277 Y88.509 E.01526
G1 X182.517 Y89.335 E.02698
G1 X182.517 Y130.626 E1.29466
G1 X182.343 Y131.34 E.02304
G1 X181.976 Y131.976 E.02301
G1 X181.424 Y132.493 E.02373
G1 X180.749 Y132.851 E.02395
G1 X180.003 Y133.051 E.02421
G1 X179.32 Y133.276 E.02256
G1 X178.308 Y133.401 E.03197
G1 X41.692 Y133.401 E4.28348
G1 X40.648 Y133.269 E.033
G1 X38.913 Y132.707 E.05717
G1 X38.458 Y132.404 E.01714
G1 X38.071 Y132.038 E.01669
G1 X37.544 Y131.021 E.03594
G1 X37.483 Y130.61 E.01301
G1 X37.483 Y89.374 E1.29294
G1 X37.657 Y88.66 E.02304
G1 X38.024 Y88.024 E.02301
G1 X38.576 Y87.507 E.02373
G1 X38.862 Y87.355 E.01015
G1 X39.036 Y87.684 F9000
G1 F1200
G1 X39.37 Y87.508 E.01183
G1 X40.106 Y87.31 E.02393
G1 X40.746 Y87.095 E.02116
G1 X41.704 Y86.976 E.03027
G1 X178.317 Y86.977 E4.28339
G1 X179.255 Y87.096 E.02964
G1 X180.902 Y87.623 E.05423
G1 X181.305 Y87.89 E.01515
G1 X181.741 Y88.336 E.01956
G1 X181.939 Y88.677 E.01236
G1 X182.14 Y89.362 E.02239
G1 X182.14 Y130.605 E1.29312
G1 X182.003 Y131.176 E.01842
G1 X181.665 Y131.761 E.02121
G1 X181.188 Y132.198 E.02027
G1 X180.63 Y132.492 E.01976
G1 X179.894 Y132.69 E.02393
G1 X179.254 Y132.905 E.02116
G1 X178.296 Y133.024 E.03027
G1 X41.704 Y133.024 E4.28275
G1 X40.746 Y132.904 E.03027
G1 X39.098 Y132.377 E.05423
G1 X38.705 Y132.119 E.01477
G1 X38.353 Y131.786 E.01516
G1 X37.912 Y130.933 E.03013
G1 X37.86 Y130.595 E.01071
G1 X37.86 Y89.395 E1.29179
G1 X37.997 Y88.824 E.01842
G1 X38.335 Y88.239 E.02121
G1 X38.812 Y87.802 E.02027
G1 X38.983 Y87.712 E.00605
G1 X39.156 Y88.041 F9000
G1 F1200
G1 X39.488 Y87.867 E.01175
G1 X40.215 Y87.671 E.02363
G1 X40.848 Y87.459 E.02091
G1 X41.715 Y87.353 E.02741
G1 X178.305 Y87.354 E4.28268
G1 X179.158 Y87.461 E.02694
G1 X180.719 Y87.953 E.05131
G1 X181.053 Y88.171 E.01251
G1 X181.431 Y88.55 E.01676
G1 X181.585 Y88.811 E.00951
G1 X181.763 Y89.391 E.01903
G1 X181.763 Y130.583 E1.29155
G1 X181.662 Y131.012 E.01379
G1 X181.354 Y131.546 E.01933
G1 X180.956 Y131.9 E.01673
G1 X180.512 Y132.133 E.0157
G1 X179.785 Y132.329 E.02363
G1 X179.152 Y132.541 E.02091
G1 X178.285 Y132.647 E.02741
G1 X41.715 Y132.647 E4.28204
G1 X40.842 Y132.539 E.02757
G1 X39.281 Y132.047 E.05132
G1 X38.951 Y131.832 E.01235
G1 X38.636 Y131.534 E.0136
G1 X38.279 Y130.843 E.02438
G1 X38.237 Y130.58 E.00837
G1 X38.237 Y89.417 E1.29064
G1 X38.338 Y88.988 E.01379
G1 X38.646 Y88.454 E.01933
G1 X39.044 Y88.1 E.01673
G1 X39.103 Y88.069 E.00207
G1 X39.281 Y88.4 F9000
G1 F1200
G1 X39.607 Y88.225 E.01162
G1 X40.324 Y88.032 E.02328
G1 X40.949 Y87.823 E.02065
G1 X41.726 Y87.73 E.02455
G1 X178.294 Y87.732 E4.28199
G1 X179.055 Y87.824 E.02404
G1 X179.686 Y88.035 E.02086
G1 X180.541 Y88.287 E.02792
G1 X180.804 Y88.455 E.0098
G1 X181.123 Y88.769 E.01403
G1 X181.234 Y88.95 E.00667
G1 X181.386 Y89.422 E.01553
G1 X181.386 Y130.563 E1.28994
G1 X181.319 Y130.853 E.00934
G1 X181.077 Y131.289 E.01563
G1 X180.755 Y131.58 E.0136
G1 X180.393 Y131.775 E.01291
G1 X179.676 Y131.968 E.02328
G1 X179.051 Y132.177 E.02065
G1 X178.274 Y132.27 E.02455
G1 X41.726 Y132.27 E4.28135
G1 X40.945 Y132.176 E.02467
G1 X40.314 Y131.965 E.02087
G1 X39.459 Y131.713 E.02792
G1 X39.196 Y131.546 E.00978
G1 X38.918 Y131.282 E.01201
G1 X38.646 Y130.752 E.0187
G1 X38.614 Y130.563 E.006
G1 X38.614 Y89.437 E1.28948
G1 X38.681 Y89.147 E.00934
G1 X38.923 Y88.711 E.01563
G1 X39.231 Y88.433 E.01301
G1 X39.449 Y88.737 F9000
G1 F1200
G1 X39.729 Y88.583 E.01002
G1 X40.433 Y88.393 E.02288
G1 X41.05 Y88.187 E.02038
G1 X41.737 Y88.108 E.02169
G1 X178.283 Y88.109 E4.28132
G1 X178.954 Y88.188 E.02118
G1 X179.575 Y88.396 E.02053
G1 X180.365 Y88.621 E.02576
G1 X180.558 Y88.742 E.00713
G1 X180.82 Y88.994 E.01141
G1 X180.887 Y89.097 E.00385
G1 X181.009 Y89.455 E.01184
G1 X181.009 Y130.543 E1.2883
G1 X180.974 Y130.701 E.00507
G1 X180.795 Y131.036 E.0119
G1 X180.551 Y131.263 E.01045
G1 X180.271 Y131.417 E.01002
G1 X179.567 Y131.607 E.02288
G1 X178.95 Y131.813 E.02038
G1 X178.263 Y131.892 E.02169
G1 X41.737 Y131.892 E4.28069
G1 X41.046 Y131.812 E.02181
G1 X40.425 Y131.604 E.02053
G1 X39.635 Y131.379 E.02576
G1 X39.441 Y131.258 E.00715
G1 X39.201 Y131.031 E.01035
G1 X39.012 Y130.657 E.01315
G1 X38.991 Y130.545 E.00357
G1 X38.991 Y89.457 E1.28829
G1 X39.026 Y89.299 E.00507
G1 X39.205 Y88.964 E.0119
G1 X39.405 Y88.778 E.00857
G1 X39.662 Y89.055 F9000
G1 F1200
G1 X39.849 Y88.941 E.00686
G1 X40.542 Y88.754 E.02252
G1 X41.15 Y88.551 E.02009
G1 X41.747 Y88.485 E.01884
G1 X178.273 Y88.486 E4.28068
G1 X178.854 Y88.552 E.01832
G1 X179.466 Y88.757 E.02024
G1 X180.195 Y88.959 E.02372
G1 X180.316 Y89.031 E.00441
G1 X180.525 Y89.229 E.00903
G1 X180.631 Y89.491 E.00887
G1 X180.625 Y130.558 E1.28763
G1 X180.512 Y130.784 E.00794
G1 X180.311 Y130.971 E.00858
G1 X180.151 Y131.059 E.00573
G1 X179.458 Y131.246 E.02252
G1 X178.85 Y131.449 E.02009
G1 X178.253 Y131.515 E.01884
G1 X41.747 Y131.515 E4.28006
G1 X41.146 Y131.448 E.01895
G1 X40.534 Y131.243 E.02023
G1 X39.805 Y131.041 E.02372
G1 X39.684 Y130.969 E.00441
G1 X39.486 Y130.781 E.00857
G1 X39.369 Y130.524 E.00887
G1 X39.369 Y89.475 E1.28704
G1 X39.488 Y89.216 E.00897
G1 X39.618 Y89.095 E.00553
G1 X39.874 Y89.372 F9000
G1 F1200
G1 X39.969 Y89.299 E.00374
G1 X40.651 Y89.116 E.02215
G1 X41.25 Y88.915 E.01979
G1 X41.756 Y88.862 E.01598
G1 X178.244 Y88.862 E4.27947
G1 X178.754 Y88.916 E.0161
G1 X179.358 Y89.118 E.01996
G1 X180.035 Y89.3 E.02198
G1 X180.224 Y89.463 E.00781
G1 X180.254 Y89.534 E.00244
G1 X180.254 Y130.466 E1.28338
G1 X180.223 Y130.538 E.00247
G1 X180.031 Y130.701 E.00789
G1 X179.349 Y130.884 E.02215
G1 X178.75 Y131.085 E.01979
G1 X178.244 Y131.138 E.01598
G1 X41.756 Y131.138 E4.27946
G1 X41.246 Y131.084 E.0161
G1 X40.642 Y130.882 E.01996
G1 X39.965 Y130.7 E.02198
G1 X39.776 Y130.537 E.00781
G1 X39.746 Y130.466 E.00244
G1 X39.746 Y89.534 E1.28338
G1 X39.777 Y89.462 E.00247
G1 X39.83 Y89.413 E.00227
G1 X40.521 Y89.954 F9000
;TYPE:Perimeter
G1 F1200
G1 X40.875 Y89.858 E.0115
G1 X41.432 Y89.672 E.01842
G1 X41.784 Y89.637 E.0111
G1 X178.215 Y89.637 E4.27768
G1 X178.571 Y89.673 E.01122
G1 X179.134 Y89.861 E.01861
G1 X179.479 Y89.954 E.0112
G1 X179.479 Y130.046 E1.25706
G1 X179.125 Y130.142 E.0115
G1 X178.568 Y130.328 E.01842
G1 X178.216 Y130.363 E.0111
G1 X41.785 Y130.363 E4.27768
G1 X41.429 Y130.327 E.01122
G1 X40.866 Y130.139 E.01861
G1 X40.521 Y130.046 E.0112
G1 X40.521 Y90.014 E1.25518
G1 X40.144 Y89.665 F9000
;TYPE:External perimeter
G1 F1200
G1 X40.766 Y89.497 E.0202
G1 X41.353 Y89.301 E.0194
G1 X41.766 Y89.26 E.01301
G1 X178.234 Y89.26 E4.27885
G1 X178.651 Y89.302 E.01313
G1 X179.243 Y89.5 E.01958
G1 X179.856 Y89.665 E.01991
G1 X179.856 Y130.335 E1.27518
G1 X179.234 Y130.503 E.0202
G1 X178.647 Y130.699 E.0194
G1 X178.234 Y130.74 E.01301
G1 X41.766 Y130.74 E4.27885
G1 X41.349 Y130.698 E.01313
G1 X40.757 Y130.5 E.01958
G1 X40.144 Y130.335 E.01991
G1 X40.144 Y89.725 E1.2733
G1 X40.521 Y89.8 F9000
G1 E-3.5 F3600
;WIPE_START
G1 F7200
G1 X40.766 Y89.497 E-.31468
G1 X41.353 Y89.301 E-.2939
G1 X41.766 Y89.26 E-.19711
G1 X43.07 Y89.26 E-.61931
;WIPE_END
G1 E-.075 F3600
G1 X178.32 Y89.761 F9000
G1 E5 F2400
;TYPE:Solid infill
;WIDTH:0.420149
G1 F1200
G1 X179.196 Y90.638 E.03888
G1 X179.196 Y91.171 E.01673
G1 X177.945 Y89.92 E.05551
G1 X177.411 Y89.92 E.01673
G1 X179.196 Y91.705 E.07917
G1 X179.196 Y92.238 E.01673
G1 X176.878 Y89.92 E.10284
G1 X176.344 Y89.92 E.01673
G1 X179.196 Y92.772 E.1265
G1 X179.196 Y93.305 E.01673
G1 X175.811 Y89.92 E.15017
G1 X175.277 Y89.92 E.01673
G1 X179.196 Y93.839 E.17383
G1 X179.196 Y94.372 E.01673
G1 X174.744 Y89.92 E.1975
G1 X174.21 Y89.92 E.01673
G1 X179.196 Y94.906 E.22116
G1 X179.196 Y95.439 E.01673
G1 X173.677 Y89.92 E.24482
G1 X173.143 Y89.92 E.01673
G1 X179.196 Y95.973 E.26849
G1 X179.196 Y96.506 E.01673
G1 X172.61 Y89.92 E.29215
G1 X172.076 Y89.92 E.01673
G1 X179.196 Y97.04 E.31582
G1 X179.196 Y97.573 E.01673
G1 X171.543 Y89.92 E.33948
G1 X171.009 Y89.92 E.01673
G1 X179.196 Y98.107 E.36315
G1 X179.196 Y98.64 E.01673
G1 X170.476 Y89.92 E.38681
