; generated by PrusaSlicer 2.4.1+win64 on 2022-09-03 at 10:31:08 UTC

; 

; external perimeters extrusion width = 0.45mm
; perimeters extrusion width = 0.45mm
; infill extrusion width = 0.45mm
; solid infill extrusion width = 0.45mm
; top infill extrusion width = 0.40mm
; first layer extrusion width = 0.42mm

M107
;TYPE:Custom
G90 ; use absolute coordinates
M83 ; extruder relative mode
M140 S80 ; set final bed temp
M104 S150 ; set temporary nozzle temp to prevent oozing during homing
G4 S10 ; allow partial nozzle warmup
G28 ; home all axis
G1 Z50 F240
G1 X2 Y10 F3000
M104 S235 ; set final nozzle temp
M190 S80 ; wait for bed temp to stabilize
M109 S235 ; wait for nozzle temp to stabilize
G1 Z0.28 F240
G92 E0
G1 Y140 E10 F1500 ; prime the nozzle
G1 X2.3 F5000
G92 E0
G1 Y10 E10 F1200 ; prime the nozzle
G92 E0
G21 ; set units to millimeters
G90 ; use absolute coordinates
M83 ; use relative distances for extrusion
; Filament gcode
M107
;LAYER_CHANGE
;Z:0.2
;HEIGHT:0.2
;BEFORE_LAYER_CHANGE
G92 E0
;0.2


G1 E-5 F3600
G1 Z.2 F9000
;AFTER_LAYER_CHANGE
;0.2
G1 X98.963 Y98.965
G1 E5 F2400
M204 S500
;TYPE:Skirt/Brim
;WIDTH:0.42
G1 F1128
G1 X99.395 Y98.534 E.01913
G1 X100.724 Y97.434 E.05412
G1 X101.731 Y96.75 E.03816
G1 X103.243 Y95.918 E.05411
G1 X104.36 Y95.435 E.03815
G1 X106.002 Y94.902 E.05412
G1 X107.189 Y94.636 E.03815
G1 X108.902 Y94.42 E.05412
G1 X110.838 Y94.404 E.06072
G1 X112.074 Y94.52 E.03893
G1 X113.77 Y94.843 E.05412
G1 X114.938 Y95.183 E.03816
G1 X116.543 Y95.818 E.05411
G1 X117.627 Y96.37 E.03815
G1 X119.085 Y97.295 E.05412
G1 X120.587 Y98.518 E.06072
G1 X121.466 Y99.395 E.03893
G1 X122.566 Y100.724 E.05412
G1 X123.25 Y101.731 E.03816
G1 X124.182 Y103.457 E.0615
G1 X124.817 Y105.062 E.05411
G1 X125.157 Y106.23 E.03816
G1 X125.48 Y107.926 E.05412
G1 X125.595 Y109.137 E.03815
G1 X125.595 Y110.863 E.05412
G1 X125.364 Y112.811 E.0615
G1 X125.098 Y113.998 E.03815
G1 X124.565 Y115.64 E.05412
G1 X124.082 Y116.757 E.03815
G1 X123.25 Y118.269 E.05411
G1 X122.566 Y119.276 E.03816
G1 X121.466 Y120.605 E.05412
G1 X120.605 Y121.466 E.03815
G1 X119.276 Y122.566 E.05412
G1 X118.269 Y123.25 E.03816
G1 X116.543 Y124.182 E.0615
G1 X114.938 Y124.817 E.05411
G1 X113.77 Y125.157 E.03816
G1 X112.074 Y125.48 E.05412
G1 X110.863 Y125.595 E.03815
G1 X109.137 Y125.595 E.05412
G1 X107.189 Y125.364 E.0615
G1 X106.002 Y125.098 E.03815
G1 X104.36 Y124.565 E.05412
G1 X103.243 Y124.082 E.03815
G1 X101.731 Y123.25 E.05411
G1 X100.724 Y122.566 E.03816
G1 X99.394 Y121.466 E.05412
G1 X98.534 Y120.605 E.03815
G1 X97.434 Y119.276 E.05412
G1 X96.75 Y118.269 E.03816
G1 X95.818 Y116.543 E.0615
G1 X95.183 Y114.938 E.05411
G1 X94.843 Y113.77 E.03816
G1 X94.52 Y112.074 E.05412
G1 X94.405 Y110.863 E.03815
G1 X94.405 Y109.137 E.05412
G1 X94.636 Y107.189 E.0615
G1 X94.902 Y106.002 E.03815
G1 X95.435 Y104.36 E.05412
G1 X95.918 Y103.243 E.03815
G1 X96.75 Y101.731 E.05411
G1 X97.434 Y100.724 E.03816
G1 X98.534 Y99.394 E.05412
G1 X98.921 Y99.008 E.01714
G1 X99.187 Y99.274 F9000
G1 F1128
G1 X99.644 Y98.817 E.02027
G1 X100.956 Y97.732 E.05337
G1 X101.923 Y97.074 E.03667
G1 X103.415 Y96.254 E.05337
G1 X104.488 Y95.79 E.03667
G1 X106.107 Y95.264 E.05338
G1 X107.248 Y95.009 E.03667
G1 X108.937 Y94.795 E.05337
G1 X110.826 Y94.781 E.05924
G1 X112.015 Y94.892 E.03745
G1 X113.688 Y95.211 E.05337
G1 X114.811 Y95.537 E.03667
G1 X116.393 Y96.164 E.05337
G1 X117.435 Y96.695 E.03667
G1 X118.873 Y97.607 E.05338
G1 X120.337 Y98.801 E.05923
G1 X121.183 Y99.644 E.03745
G1 X122.268 Y100.956 E.05337
G1 X122.926 Y101.923 E.03667
G1 X123.836 Y103.607 E.06001
G1 X124.463 Y105.189 E.05337
G1 X124.789 Y106.312 E.03667
G1 X125.108 Y107.985 E.05338
G1 X125.218 Y109.149 E.03667
G1 X125.218 Y110.851 E.05338
G1 X124.991 Y112.752 E.06001
G1 X124.736 Y113.893 E.03667
G1 X124.21 Y115.512 E.05338
G1 X123.746 Y116.585 E.03667
G1 X122.926 Y118.077 E.05337
G1 X122.268 Y119.044 E.03667
G1 X121.183 Y120.356 E.05338
G1 X120.356 Y121.183 E.03667
G1 X119.044 Y122.268 E.05337
G1 X118.077 Y122.926 E.03667
G1 X116.393 Y123.836 E.06001
G1 X114.811 Y124.463 E.05337
G1 X113.688 Y124.789 E.03667
G1 X112.015 Y125.108 E.05338
G1 X110.851 Y125.218 E.03667
G1 X109.149 Y125.218 E.05338
G1 X107.248 Y124.991 E.06001
G1 X106.107 Y124.736 E.03667
G1 X104.488 Y124.21 E.05338
G1 X103.415 Y123.746 E.03667
G1 X101.923 Y122.926 E.05337
G1 X100.956 Y122.268 E.03667
G1 X99.644 Y121.183 E.05338
G1 X98.817 Y120.356 E.03666
G1 X97.732 Y119.044 E.05337
G1 X97.074 Y118.077 E.03667
G1 X96.164 Y116.393 E.06001
G1 X95.537 Y114.811 E.05337
G1 X95.211 Y113.688 E.03667
G1 X94.892 Y112.015 E.05338
G1 X94.782 Y110.851 E.03667
G1 X94.782 Y109.149 E.05338
G1 X95.009 Y107.248 E.06001
G1 X95.264 Y106.107 E.03667
G1 X95.79 Y104.488 E.05338
G1 X96.254 Y103.415 E.03667
G1 X97.074 Y101.923 E.05337
G1 X97.732 Y100.956 E.03667
G1 X98.817 Y99.644 E.05338
G1 X99.144 Y99.316 E.01452
G1 E-3.5 F3600
;WIPE_START
G1 F7200
G1 X99.644 Y98.817 E-.33554
G1 X100.956 Y97.732 E-.80859
G1 X101.445 Y97.399 E-.28087
;WIPE_END
G1 E-.075 F3600
G1 X101.744 Y101.916 F9000
G1 E5 F2400
;TYPE:External perimeter
G1 F1128
G1 X102.087 Y101.573 E.0152
G1 X102.631 Y101.093 E.02277
G1 X103.205 Y100.648 E.02277
G1 X103.806 Y100.239 E.02277
G1 X104.431 Y99.87 E.02277
G1 X105.078 Y99.54 E.02277
G1 X105.744 Y99.252 E.02277
G1 X106.428 Y99.006 E.02277
G1 X107.125 Y98.803 E.02277
G1 X107.834 Y98.645 E.02277
G1 X108.551 Y98.531 E.02277
G1 X109.274 Y98.463 E.02277
G1 X109.976 Y98.441 E.02202
G1 X110.726 Y98.463 E.02351
G1 X111.449 Y98.531 E.02278
G1 X112.166 Y98.645 E.02277
G1 X112.875 Y98.803 E.02277
G1 X113.572 Y99.006 E.02277
G1 X114.256 Y99.252 E.02277
G1 X114.922 Y99.54 E.02277
G1 X115.569 Y99.87 E.02277
G1 X116.194 Y100.239 E.02277
G1 X116.795 Y100.648 E.02277
G1 X117.369 Y101.093 E.02277
G1 X117.913 Y101.573 E.02277
G1 X118.427 Y102.087 E.02277
G1 X118.907 Y102.631 E.02277
G1 X119.352 Y103.205 E.02277
G1 X119.761 Y103.806 E.02277
G1 X120.13 Y104.431 E.02277
G1 X120.46 Y105.078 E.02277
G1 X120.739 Y105.722 E.02202
G1 X120.994 Y106.428 E.02351
G1 X121.197 Y107.125 E.02278
G1 X121.355 Y107.834 E.02277
G1 X121.469 Y108.551 E.02277
G1 X121.537 Y109.274 E.02277
G1 X121.56 Y110 E.02277
G1 X121.537 Y110.726 E.02277
G1 X121.471 Y111.425 E.02202
G1 X121.355 Y112.166 E.02351
G1 X121.197 Y112.875 E.02278
G1 X120.994 Y113.572 E.02277
G1 X120.748 Y114.256 E.02277
G1 X120.46 Y114.922 E.02277
G1 X120.13 Y115.569 E.02277
G1 X119.761 Y116.194 E.02277
G1 X119.352 Y116.795 E.02277
G1 X118.907 Y117.369 E.02277
G1 X118.427 Y117.913 E.02277
G1 X117.913 Y118.427 E.02277
G1 X117.369 Y118.907 E.02277
G1 X116.795 Y119.352 E.02277
G1 X116.194 Y119.761 E.02277
G1 X115.569 Y120.13 E.02277
G1 X114.922 Y120.46 E.02277
G1 X114.278 Y120.739 E.02202
G1 X113.572 Y120.994 E.02351
G1 X112.875 Y121.197 E.02278
G1 X112.166 Y121.355 E.02277
G1 X111.449 Y121.469 E.02277
G1 X110.726 Y121.537 E.02277
G1 X110 Y121.56 E.02277
G1 X109.274 Y121.537 E.02277
G1 X108.575 Y121.471 E.02202
G1 X107.834 Y121.355 E.02351
G1 X107.125 Y121.197 E.02278
G1 X106.428 Y120.994 E.02277
G1 X105.744 Y120.748 E.02277
G1 X105.078 Y120.46 E.02277
G1 X104.452 Y120.141 E.02202
G1 X103.806 Y119.761 E.02351
G1 X103.205 Y119.352 E.02278
G1 X102.631 Y118.907 E.02277
G1 X102.087 Y118.427 E.02277
G1 X101.59 Y117.93 E.02202
G1 X101.093 Y117.369 E.02351
G1 X100.648 Y116.795 E.02278
G1 X100.239 Y116.194 E.02277
G1 X99.87 Y115.569 E.02277
G1 X99.54 Y114.922 E.02277
G1 X99.252 Y114.256 E.02277
G1 X99.006 Y113.572 E.02277
G1 X98.803 Y112.875 E.02277
G1 X98.645 Y112.166 E.02277
G1 X98.531 Y111.449 E.02277
G1 X98.463 Y110.726 E.02277
G1 X98.44 Y110 E.02277
G1 X98.463 Y109.274 E.02277
G1 X98.529 Y108.575 E.02202
G1 X98.645 Y107.834 E.02351
G1 X98.803 Y107.125 E.02278
G1 X99.006 Y106.428 E.02277
G1 X99.252 Y105.744 E.02277
G1 X99.54 Y105.078 E.02277
G1 X99.87 Y104.431 E.02277
G1 X100.239 Y103.806 E.02277
G1 X100.648 Y103.205 E.02277
G1 X101.093 Y102.631 E.02277
G1 X101.701 Y101.958 E.02845
G1 X101.63 Y101.532 F9000
G1 X101.677 Y101.849
G1 F1128
G1 X102.021 Y101.503 E.01531
G1 X102.57 Y101.019 E.02295
G1 X103.149 Y100.57 E.02296
G1 X103.755 Y100.159 E.02296
G1 X104.385 Y99.786 E.02296
G1 X105.037 Y99.454 E.02296
G1 X105.709 Y99.163 E.02296
G1 X106.398 Y98.915 E.02296
G1 X107.101 Y98.71 E.02296
G1 X107.816 Y98.551 E.02296
G1 X108.539 Y98.436 E.02296
G1 X109.268 Y98.367 E.02296
G1 X110 Y98.344 E.02296
G1 X110.732 Y98.367 E.02296
G1 X111.461 Y98.436 E.02296
G1 X112.184 Y98.551 E.02296
G1 X112.899 Y98.71 E.02296
G1 X113.602 Y98.915 E.02296
G1 X114.291 Y99.163 E.02296
G1 X114.963 Y99.454 E.02296
G1 X115.615 Y99.786 E.02296
G1 X116.245 Y100.159 E.02296
G1 X116.851 Y100.57 E.02296
G1 X117.43 Y101.019 E.02296
G1 X117.96 Y101.487 E.02219
G1 X118.497 Y102.021 E.02374
G1 X118.981 Y102.57 E.02295
G1 X119.43 Y103.149 E.02296
G1 X119.841 Y103.755 E.02296
G1 X120.214 Y104.385 E.02296
G1 X120.546 Y105.037 E.02296
G1 X120.837 Y105.709 E.02296
G1 X121.085 Y106.398 E.02296
G1 X121.29 Y107.101 E.02296
G1 X121.449 Y107.816 E.02296
G1 X121.564 Y108.539 E.02296
G1 X121.633 Y109.268 E.02296
G1 X121.656 Y110 E.02296
G1 X121.633 Y110.732 E.02296
G1 X121.564 Y111.461 E.02296
G1 X121.449 Y112.184 E.02296
G1 X121.29 Y112.899 E.02296
G1 X121.085 Y113.602 E.02296
G1 X120.837 Y114.291 E.02296
G1 X120.546 Y114.963 E.02296
G1 X120.214 Y115.615 E.02296
G1 X119.841 Y116.245 E.02296
G1 X119.43 Y116.851 E.02296
G1 X118.981 Y117.43 E.02296
G1 X118.513 Y117.96 E.02219
G1 X117.979 Y118.497 E.02374
G1 X117.43 Y118.981 E.02295
G1 X116.851 Y119.43 E.02296
G1 X116.245 Y119.841 E.02296
G1 X115.615 Y120.214 E.02296
G1 X114.963 Y120.546 E.02296
G1 X114.291 Y120.837 E.02296
G1 X113.602 Y121.085 E.02296
G1 X112.899 Y121.29 E.02296
G1 X112.184 Y121.449 E.02296
G1 X111.461 Y121.564 E.02296
G1 X110.732 Y121.633 E.02296
G1 X110 Y121.656 E.02296
G1 X109.268 Y121.633 E.02296
G1 X108.539 Y121.564 E.02296
G1 X107.816 Y121.449 E.02296
G1 X107.101 Y121.29 E.02296
G1 X106.398 Y121.085 E.02296
G1 X105.709 Y120.837 E.02296
G1 X105.037 Y120.546 E.02296
G1 X104.385 Y120.214 E.02296
G1 X103.755 Y119.841 E.02296
G1 X103.149 Y119.43 E.02296
G1 X102.57 Y118.981 E.02296
G1 X102.04 Y118.513 E.02219
G1 X101.503 Y117.979 E.02374
G1 X101.019 Y117.43 E.02295
G1 X100.57 Y116.851 E.02296
G1 X100.159 Y116.245 E.02296
G1 X99.786 Y115.615 E.02296
G1 X99.454 Y114.963 E.02296
G1 X99.163 Y114.291 E.02296
G1 X98.915 Y113.602 E.02296
G1 X98.71 Y112.899 E.02296
G1 X98.551 Y112.184 E.02296
G1 X98.436 Y111.461 E.02296
G1 X98.367 Y110.732 E.02296
G1 X98.344 Y110 E.02296
G1 X98.367 Y109.268 E.02296
G1 X98.436 Y108.539 E.02296
G1 X98.551 Y107.816 E.02296
G1 X98.71 Y107.101 E.02296
G1 X98.915 Y106.398 E.02296
G1 X99.163 Y105.709 E.02296
G1 X99.454 Y105.037 E.02296
G1 X99.786 Y104.385 E.02296
G1 X100.159 Y103.755 E.02296
G1 X100.57 Y103.149 E.02296
G1 X101.019 Y102.57 E.02296
G1 X101.634 Y101.892 E.02873
G1 X102.066 Y101.942 F9000
;LAYER_CHANGE
;Z:0.36
;HEIGHT:0.16
;BEFORE_LAYER_CHANGE
G92 E0
;0.36


G1 E-3.5 F3600
;WIPE_START
G1 F7200
G1 X102.021 Y101.503 E-.26036
G1 X102.57 Y101.019 E-.34773
G1 X103.149 Y100.57 E-.34781
G1 X103.755 Y100.159 E-.34781
G1 X103.974 Y100.029 E-.12129
;WIPE_END
G1 E-.075 F3600
G1 Z.36 F9000
;AFTER_LAYER_CHANGE
;0.36
G1 X102.069 Y96.564
G1 E5 F2400
;TYPE:Skirt/Brim
G1 F1078
G1 X103.243 Y95.918 E.03437
G1 X104.36 Y95.435 E.03122
G1 X106.002 Y94.902 E.04428
G1 X107.189 Y94.636 E.03122
G1 X108.902 Y94.42 E.04428
G1 X110.838 Y94.404 E.04968
G1 X112.074 Y94.52 E.03185
G1 X113.77 Y94.843 E.04428
G1 X114.938 Y95.183 E.03122
G1 X116.543 Y95.818 E.04428
G1 X117.627 Y96.37 E.03122
G1 X119.085 Y97.295 E.04428
G1 X120.587 Y98.518 E.04968
G1 X121.466 Y99.395 E.03186
G1 X122.566 Y100.724 E.04428
G1 X123.25 Y101.731 E.03122
G1 X124.182 Y103.457 E.05032
G1 X124.817 Y105.062 E.04428
G1 X125.157 Y106.23 E.03122
G1 X125.48 Y107.926 E.04428
G1 X125.595 Y109.137 E.03122
G1 X125.595 Y110.863 E.04428
G1 X125.364 Y112.811 E.05032
G1 X125.098 Y113.998 E.03122
G1 X124.565 Y115.64 E.04428
G1 X124.082 Y116.757 E.03122
G1 X123.25 Y118.269 E.04428
G1 X122.566 Y119.276 E.03122
G1 X121.466 Y120.605 E.04428
G1 X120.605 Y121.466 E.03122
G1 X119.276 Y122.566 E.04428
G1 X118.269 Y123.25 E.03122
G1 X116.543 Y124.182 E.05032
G1 X114.938 Y124.817 E.04428
G1 X113.77 Y125.157 E.03122
G1 X112.074 Y125.48 E.04428
G1 X110.863 Y125.595 E.03122
G1 X109.137 Y125.595 E.04428
G1 X107.189 Y125.364 E.05032
G1 X106.002 Y125.098 E.03122
G1 X104.36 Y124.565 E.04428
G1 X103.243 Y124.082 E.03122
G1 X101.731 Y123.25 E.04428
G1 X100.724 Y122.566 E.03122
G1 X99.394 Y121.466 E.04428
G1 X98.534 Y120.605 E.03121
G1 X97.434 Y119.276 E.04428
G1 X96.75 Y118.269 E.03122
G1 X95.818 Y116.543 E.05032
G1 X95.183 Y114.938 E.04428
G1 X94.843 Y113.77 E.03122
G1 X94.52 Y112.074 E.04428
G1 X94.405 Y110.863 E.03122
G1 X94.405 Y109.137 E.04428
G1 X94.636 Y107.189 E.05032
G1 X94.902 Y106.002 E.03122
G1 X95.435 Y104.36 E.04428
G1 X95.918 Y103.243 E.03122
G1 X96.75 Y101.731 E.04428
G1 X97.434 Y100.724 E.03122
G1 X98.534 Y99.394 E.04428
G1 X99.395 Y98.534 E.03121
G1 X100.724 Y97.434 E.04428
G1 X101.731 Y96.75 E.03122
G1 X102.017 Y96.593 E.00837
G1 X102.198 Y96.923 F9000
G1 F1078
G1 X103.415 Y96.254 E.0356
G1 X104.488 Y95.79 E.03
G1 X106.107 Y95.264 E.04367
G1 X107.248 Y95.009 E.03
G1 X108.937 Y94.795 E.04367
G1 X110.826 Y94.781 E.04847
G1 X112.015 Y94.892 E.03064
G1 X113.688 Y95.211 E.04367
G1 X114.811 Y95.537 E.03
G1 X116.393 Y96.164 E.04367
G1 X117.435 Y96.695 E.03
G1 X118.873 Y97.607 E.04367
G1 X120.337 Y98.801 E.04847
G1 X121.183 Y99.644 E.03064
G1 X122.268 Y100.956 E.04367
G1 X122.926 Y101.923 E.03
G1 X123.836 Y103.607 E.0491
G1 X124.463 Y105.189 E.04367
G1 X124.789 Y106.312 E.03
G1 X125.108 Y107.985 E.04367
G1 X125.218 Y109.149 E.03
G1 X125.218 Y110.851 E.04367
G1 X124.991 Y112.752 E.0491
G1 X124.736 Y113.893 E.03
G1 X124.21 Y115.512 E.04368
G1 X123.746 Y116.585 E.03
G1 X122.926 Y118.077 E.04367
G1 X122.268 Y119.044 E.03001
G1 X121.183 Y120.356 E.04367
G1 X120.356 Y121.183 E.03
G1 X119.044 Y122.268 E.04367
G1 X118.077 Y122.926 E.03
G1 X116.393 Y123.836 E.0491
G1 X114.811 Y124.463 E.04367
G1 X113.688 Y124.789 E.03
G1 X112.015 Y125.108 E.04367
G1 X110.851 Y125.218 E.03
G1 X109.149 Y125.218 E.04367
G1 X107.248 Y124.991 E.0491
G1 X106.107 Y124.736 E.03
G1 X104.488 Y124.21 E.04368
G1 X103.415 Y123.746 E.03
G1 X101.923 Y122.926 E.04367
G1 X100.956 Y122.268 E.03
G1 X99.644 Y121.183 E.04368
G1 X98.817 Y120.356 E.03
G1 X97.732 Y119.044 E.04367
G1 X97.074 Y118.077 E.03
G1 X96.164 Y116.393 E.0491
G1 X95.537 Y114.811 E.04367
G1 X95.211 Y113.688 E.03
G1 X94.892 Y112.015 E.04367
G1 X94.782 Y110.851 E.03
G1 X94.782 Y109.149 E.04367
G1 X95.009 Y107.248 E.0491
G1 X95.264 Y106.107 E.03
G1 X95.79 Y104.488 E.04368
G1 X96.254 Y103.415 E.03
G1 X97.074 Y101.923 E.04367
G1 X97.732 Y100.956 E.03
G1 X98.817 Y99.644 E.04368
G1 X99.644 Y98.817 E.03
G1 X100.956 Y97.732 E.04367
G1 X101.923 Y97.074 E.03001
G1 X102.146 Y96.952 E.00653
G1 E-3.5 F3600
;WIPE_START
G1 F7200
G1 X103.415 Y96.254 E-.68768
G1 X104.488 Y95.79 E-.55552
G1 X104.852 Y95.672 E-.1818
;WIPE_END
G1 E-.075 F3600
G1 X104.009 Y100.102 F9000
G1 E5 F2400
;TYPE:External perimeter
;WIDTH:0.45
G1 F1078
G1 X104.366 Y99.891 E.01147
G1 X105.071 Y99.527 E.02194
G1 X105.739 Y99.238 E.02012
G1 X106.423 Y98.991 E.02011
G1 X107.121 Y98.789 E.02011
G1 X107.831 Y98.63 E.02011
G1 X108.549 Y98.516 E.02011
G1 X109.273 Y98.448 E.02011
G1 X109.933 Y98.427 E.01825
G1 X110.726 Y98.448 E.02194
G1 X111.451 Y98.516 E.02012
G1 X112.169 Y98.63 E.02011
G1 X112.879 Y98.789 E.02011
G1 X113.577 Y98.991 E.02011
G1 X114.261 Y99.238 E.02011
G1 X114.928 Y99.527 E.02011
G1 X115.517 Y99.826 E.01825
G1 X116.202 Y100.226 E.02194
G1 X116.804 Y100.636 E.02012
G1 X117.378 Y101.081 E.02011
G1 X117.924 Y101.562 E.02011
G1 X118.438 Y102.076 E.02011
G1 X118.919 Y102.622 E.02011
G1 X119.364 Y103.196 E.02011
G1 X119.735 Y103.742 E.01825
G1 X120.143 Y104.423 E.02194
G1 X120.473 Y105.072 E.02012
G1 X120.762 Y105.739 E.02011
G1 X121.009 Y106.423 E.02011
G1 X121.211 Y107.121 E.02011
G1 X121.37 Y107.831 E.02011
G1 X121.484 Y108.549 E.02011
G1 X121.552 Y109.273 E.02011
G1 X121.575 Y110 E.02011
